;START_OF_HEADER
;HEADER_VERSION:0.1
;FLAVOR:Griffin
;GENERATOR.NAME:Cura_SteamEngine
;GENERATOR.VERSION:3.1.0
;GENERATOR.BUILD_DATE:2018-02-01
;TARGET_MACHINE.NAME:Ultimaker 3
;EXTRUDER_TRAIN.0.INITIAL_TEMPERATURE:205
;EXTRUDER_TRAIN.0.MATERIAL.VOLUME_USED:46
;EXTRUDER_TRAIN.0.MATERIAL.GUID:506c9f0d-e3aa-4bd4-b2d2-23e2425b1aa9
;EXTRUDER_TRAIN.0.NOZZLE.DIAMETER:0.4
;EXTRUDER_TRAIN.0.NOZZLE.NAME:AA 0.4
;BUILD_PLATE.INITIAL_TEMPERATURE:60
;PRINT.TIME:38
;PRINT.SIZE.MIN.X:9
;PRINT.SIZE.MIN.Y:6
;PRINT.SIZE.MIN.Z:0.27
;PRINT.SIZE.MAX.X:123.662
;PRINT.SIZE.MAX.Y:113.992
;PRINT.SIZE.MAX.Z:2
;END_OF_HEADER
;Generated with Cura_SteamEngine 3.1.0
T0
M82 ; absolute extrusion mode

G92 E0
M109 S205
G0 F15000 X9 Y6 Z2
G280
G1 F1500 E-6.5
;LAYER_COUNT:17
;LAYER:0
M107
M204 S625
M205 X6 Y6
G0 F4285.7 X111.092 Y102.352 Z0.27
M204 S500
M205 X5 Y5
;TYPE:SKIRT
G1 F1500 E0
G1 F1200 X111.616 Y101.831 E0.01095
G1 X112.204 Y101.363 E0.02208
G1 X112.438 Y101.197 E0.02633
G1 X113.063 Y100.803 E0.03727
G1 X113.726 Y100.479 E0.0482
G1 X114.421 Y100.228 E0.05915
G1 X115.139 Y100.054 E0.07009
G1 X115.871 Y99.958 E0.08103
G1 X116.61 Y99.943 E0.09198
G1 X117.224 Y99.991 E0.1011
G1 X117.58 Y100.035 E0.10642
G1 X118.307 Y100.165 E0.11736
G1 X119.016 Y100.373 E0.1283
G1 X119.698 Y100.656 E0.13924
G1 X120.346 Y101.011 E0.15018
G1 X120.951 Y101.435 E0.16113
G1 X121.507 Y101.921 E0.17207
G1 X121.958 Y102.405 E0.18187
G1 X122.061 Y102.527 E0.18423
G1 X122.506 Y103.117 E0.19518
G1 X122.885 Y103.751 E0.20612
G1 X123.193 Y104.422 E0.21706
G1 X123.427 Y105.122 E0.22799
G1 X123.584 Y105.844 E0.23894
G1 X123.662 Y106.579 E0.24989
G1 X123.66 Y107.317 E0.26082
G1 X123.578 Y108.052 E0.27177
G1 X123.418 Y108.773 E0.28271
G1 X123.18 Y109.472 E0.29365
G1 X122.9 Y110.082 E0.30359
G1 X122.799 Y110.276 E0.30683
G1 X122.423 Y110.911 E0.31777
G1 X121.98 Y111.503 E0.32872
G1 X121.476 Y112.043 E0.33966
G1 X120.917 Y112.525 E0.35059
G1 X120.309 Y112.945 E0.36154
G1 X119.659 Y113.296 E0.37248
G1 X118.975 Y113.574 E0.38342
G1 X118.004 Y113.832 E0.3983
G1 X117.759 Y113.878 E0.402
G1 X117.027 Y113.975 E0.41293
G1 X116.289 Y113.992 E0.42387
G1 X115.553 Y113.929 E0.43481
G1 X115.185 Y113.867 E0.44034
G1 X114.905 Y113.812 E0.44457
G1 X114.188 Y113.631 E0.45552
G1 X113.496 Y113.373 E0.46646
G1 X112.836 Y113.042 E0.4774
G1 X112.215 Y112.642 E0.48834
G1 X111.641 Y112.176 E0.49929
G1 X111.121 Y111.652 E0.51023
G1 X110.661 Y111.074 E0.52117
G1 X110.266 Y110.45 E0.53211
G1 X109.94 Y109.787 E0.54306
G1 X109.803 Y109.439 E0.5486
G1 X109.736 Y109.254 E0.55151
G1 X109.522 Y108.547 E0.56245
G1 X109.386 Y107.821 E0.57339
G1 X109.33 Y107.084 E0.58434
G1 X109.353 Y106.346 E0.59528
G1 X109.456 Y105.615 E0.60622
G1 X109.637 Y104.899 E0.61716
G1 X109.895 Y104.206 E0.62811
G1 X110.226 Y103.546 E0.63905
G1 X110.626 Y102.925 E0.64999
G1 X111.092 Y102.352 E0.66093
M204 S625
M205 X6 Y6
G0 F4285.7 X111.479 Y102.449
M204 S500
M205 X5 Y5
G1 F1200 X112.004 Y101.959 E0.67157
G1 X112.407 Y101.649 E0.6791
G1 X112.641 Y101.483 E0.68335
G1 X113.25 Y101.1 E0.69401
G1 X113.897 Y100.787 E0.70465
G1 X114.576 Y100.547 E0.71532
G1 X115.277 Y100.385 E0.72598
G1 X115.991 Y100.301 E0.73663
G1 X116.711 Y100.297 E0.7473
G1 X117.181 Y100.338 E0.75428
G1 X117.537 Y100.382 E0.7596
G1 X118.245 Y100.51 E0.77026
G1 X118.935 Y100.715 E0.78092
G1 X119.597 Y100.996 E0.79157
G1 X120.224 Y101.348 E0.80222
G1 X120.808 Y101.768 E0.81288
G1 X121.342 Y102.251 E0.82355
G1 X121.691 Y102.631 E0.83119
G1 X121.794 Y102.753 E0.83355
G1 X122.226 Y103.328 E0.84421
G1 X122.593 Y103.947 E0.85487
G1 X122.888 Y104.603 E0.86552
G1 X123.109 Y105.287 E0.87617
G1 X123.253 Y105.992 E0.88683
G1 X123.317 Y106.709 E0.89749
G1 X123.302 Y107.428 E0.90815
G1 X123.207 Y108.141 E0.9188
G1 X123.033 Y108.84 E0.92947
G1 X122.783 Y109.514 E0.94012
G1 X122.589 Y109.92 E0.94679
G1 X122.488 Y110.114 E0.95003
G1 X122.121 Y110.733 E0.96069
G1 X121.688 Y111.307 E0.97134
G1 X121.193 Y111.829 E0.98199
G1 X120.644 Y112.294 E0.99265
G1 X120.046 Y112.694 E1.00331
G1 X119.408 Y113.026 E1.01396
G1 X118.736 Y113.285 E1.02463
G1 X117.94 Y113.488 E1.0368
G1 X117.695 Y113.534 E1.04049
G1 X116.981 Y113.627 E1.05116
G1 X116.262 Y113.641 E1.06181
G1 X115.252 Y113.524 E1.07687
G1 X114.972 Y113.469 E1.0811
G1 X114.275 Y113.291 E1.09176
G1 X113.602 Y113.037 E1.10241
G1 X112.961 Y112.71 E1.11307
G1 X112.36 Y112.314 E1.12373
G1 X111.807 Y111.854 E1.13439
G1 X111.309 Y111.335 E1.14504
G1 X110.871 Y110.764 E1.1557
G1 X110.499 Y110.148 E1.16636
G1 X110.132 Y109.32 E1.17978
G1 X110.065 Y109.135 E1.18269
G1 X109.858 Y108.446 E1.19335
G1 X109.729 Y107.738 E1.20401
G1 X109.679 Y107.02 E1.21467
G1 X109.709 Y106.302 E1.22532
G1 X109.818 Y105.591 E1.23597
G1 X110.006 Y104.896 E1.24664
G1 X110.269 Y104.227 E1.25729
G1 X110.606 Y103.591 E1.26795
G1 X111.01 Y102.996 E1.2786
G1 X111.479 Y102.449 E1.28928
M204 S625
M205 X6 Y6
G0 F4285.7 X111.395 Y103.073
M204 S500
M205 X5 Y5
G1 F1200 X111.866 Y102.555 E1.29965
G1 X112.609 Y101.934 E1.31399
G1 X112.843 Y101.768 E1.31824
G1 X113.436 Y101.397 E1.3286
G1 X114.067 Y101.095 E1.33897
G1 X114.729 Y100.868 E1.34933
G1 X115.412 Y100.717 E1.35969
G1 X116.108 Y100.645 E1.37006
G1 X117.138 Y100.685 E1.38533
G1 X117.494 Y100.729 E1.39064
G1 X118.183 Y100.855 E1.40102
G1 X118.852 Y101.058 E1.41137
G1 X119.494 Y101.336 E1.42174
G1 X120.101 Y101.685 E1.43211
G1 X120.663 Y102.102 E1.44248
G1 X121.174 Y102.579 E1.45283
G1 X121.423 Y102.857 E1.45836
G1 X121.526 Y102.979 E1.46073
G1 X121.946 Y103.538 E1.47108
G1 X122.3 Y104.142 E1.48145
G1 X122.582 Y104.782 E1.49181
G1 X122.79 Y105.451 E1.50219
G1 X122.92 Y106.138 E1.51255
G1 X122.97 Y106.836 E1.52291
G1 X122.941 Y107.535 E1.53328
G1 X122.832 Y108.226 E1.54364
G1 X122.645 Y108.901 E1.55402
G1 X122.279 Y109.758 E1.56782
G1 X122.178 Y109.952 E1.57106
G1 X121.82 Y110.554 E1.58144
G1 X121.396 Y111.11 E1.59179
G1 X120.911 Y111.614 E1.60216
G1 X120.371 Y112.06 E1.61253
G1 X119.785 Y112.442 E1.62289
G1 X119.158 Y112.754 E1.63327
G1 X118.5 Y112.992 E1.64363
G1 X117.875 Y113.144 E1.65316
G1 X117.63 Y113.19 E1.65685
G1 X116.936 Y113.279 E1.66722
G1 X116.237 Y113.289 E1.67757
G1 X115.319 Y113.18 E1.69127
G1 X115.039 Y113.125 E1.69549
G1 X114.362 Y112.951 E1.70585
G1 X113.708 Y112.701 E1.71622
G1 X113.087 Y112.378 E1.72659
G1 X112.508 Y111.987 E1.73694
G1 X111.976 Y111.531 E1.74732
G1 X111.5 Y111.019 E1.75767
G1 X111.086 Y110.455 E1.76804
G1 X110.738 Y109.847 E1.77841
G1 X110.461 Y109.201 E1.78883
G1 X110.394 Y109.016 E1.79174
G1 X110.194 Y108.345 E1.80211
G1 X110.071 Y107.656 E1.81248
G1 X110.028 Y106.958 E1.82284
G1 X110.065 Y106.259 E1.83321
G1 X110.181 Y105.569 E1.84357
G1 X110.375 Y104.897 E1.85394
G1 X110.645 Y104.251 E1.86431
G1 X110.986 Y103.641 E1.87466
G1 X111.395 Y103.073 E1.88503
M204 S625
M205 X6 Y6
G0 F4285.7 X111.781 Y103.157
M204 S500
M205 X5 Y5
G1 F1200 X112.254 Y102.67 E1.89508
G1 X112.812 Y102.22 E1.9057
G1 X113.046 Y102.054 E1.90995
G1 X113.622 Y101.694 E1.92001
G1 X114.236 Y101.404 E1.93007
G1 X114.881 Y101.189 E1.94014
G1 X115.546 Y101.051 E1.95021
G1 X116.223 Y100.991 E1.96027
G1 X117.095 Y101.033 E1.97321
G1 X117.451 Y101.077 E1.97852
G1 X118.12 Y101.199 E1.98859
G1 X118.769 Y101.4 E1.99866
G1 X119.39 Y101.675 E2.00872
G1 X119.974 Y102.022 E2.01878
G1 X120.514 Y102.434 E2.02884
G1 X121.156 Y103.083 E2.04237
G1 X121.259 Y103.205 E2.04473
G1 X121.666 Y103.749 E2.05479
G1 X122.006 Y104.337 E2.06486
G1 X122.275 Y104.961 E2.07492
G1 X122.469 Y105.612 E2.08498
G1 X122.584 Y106.281 E2.09504
G1 X122.621 Y106.96 E2.10511
G1 X122.577 Y107.638 E2.11518
G1 X122.455 Y108.306 E2.12524
G1 X122.254 Y108.955 E2.1353
G1 X121.968 Y109.597 E2.14571
G1 X121.867 Y109.791 E2.14895
G1 X121.519 Y110.374 E2.15901
G1 X121.104 Y110.912 E2.16907
G1 X120.629 Y111.398 E2.17914
G1 X120.1 Y111.824 E2.1892
G1 X119.525 Y112.186 E2.19927
G1 X118.911 Y112.477 E2.20933
G1 X118.267 Y112.695 E2.2194
G1 X117.811 Y112.8 E2.22634
G1 X117.566 Y112.846 E2.23003
G1 X116.892 Y112.932 E2.24009
G1 X116.212 Y112.938 E2.25017
G1 X115.387 Y112.837 E2.26248
G1 X115.107 Y112.782 E2.26671
G1 X114.449 Y112.612 E2.27677
G1 X113.816 Y112.366 E2.28683
G1 X113.216 Y112.047 E2.2969
G1 X112.657 Y111.66 E2.30697
G1 X112.148 Y111.21 E2.31704
G1 X111.695 Y110.704 E2.3271
G1 X111.305 Y110.147 E2.33717
G1 X110.983 Y109.549 E2.34723
G1 X110.79 Y109.081 E2.35473
G1 X110.723 Y108.896 E2.35764
G1 X110.53 Y108.245 E2.3677
G1 X110.414 Y107.576 E2.37776
G1 X110.378 Y106.897 E2.38783
G1 X110.422 Y106.219 E2.3979
G1 X110.545 Y105.551 E2.40796
G1 X110.746 Y104.902 E2.41802
G1 X111.021 Y104.281 E2.42808
G1 X111.368 Y103.697 E2.43815
G1 X111.781 Y103.157 E2.44822
M204 S625
M205 X6 Y6
G0 F4285.7 X112.167 Y103.25
M204 S500
M205 X5 Y5
G1 F1200 X112.643 Y102.794 E2.45798
G1 X113.014 Y102.505 E2.46495
G1 X113.248 Y102.339 E2.4692
G1 X113.807 Y101.992 E2.47894
G1 X114.405 Y101.714 E2.48871
G1 X115.031 Y101.511 E2.49846
G1 X115.677 Y101.386 E2.50821
G1 X116.334 Y101.339 E2.51797
G1 X117.052 Y101.38 E2.52862
G1 X117.408 Y101.424 E2.53393
G1 X118.056 Y101.544 E2.54369
G1 X118.684 Y101.742 E2.55345
G1 X119.283 Y102.015 E2.5632
G1 X119.845 Y102.358 E2.57295
G1 X120.362 Y102.766 E2.58271
G1 X120.888 Y103.308 E2.5939
G1 X120.991 Y103.43 E2.59626
G1 X121.385 Y103.958 E2.60602
G1 X121.711 Y104.53 E2.61577
G1 X121.966 Y105.137 E2.62553
G1 X122.146 Y105.771 E2.63529
G1 X122.247 Y106.421 E2.64503
G1 X122.269 Y107.08 E2.6548
G1 X122.211 Y107.735 E2.66454
G1 X122.074 Y108.38 E2.67431
G1 X121.86 Y109.002 E2.68405
G1 X121.658 Y109.435 E2.69113
G1 X121.557 Y109.629 E2.69437
G1 X121.218 Y110.194 E2.70413
G1 X120.813 Y110.713 E2.71388
G1 X120.348 Y111.179 E2.72364
G1 X119.83 Y111.586 E2.73339
G1 X119.267 Y111.927 E2.74314
G1 X118.667 Y112.197 E2.75289
G1 X117.746 Y112.456 E2.76706
G1 X117.501 Y112.502 E2.77076
G1 X116.848 Y112.584 E2.78051
G1 X116.189 Y112.586 E2.79027
G1 X115.454 Y112.493 E2.80124
G1 X115.174 Y112.438 E2.80547
G1 X114.537 Y112.272 E2.81522
G1 X113.925 Y112.03 E2.82497
G1 X113.346 Y111.716 E2.83473
G1 X112.81 Y111.334 E2.84448
G1 X112.324 Y110.89 E2.85423
G1 X111.895 Y110.39 E2.86399
G1 X111.53 Y109.842 E2.87374
G1 X111.119 Y108.962 E2.88813
G1 X111.052 Y108.777 E2.89104
G1 X110.866 Y108.146 E2.90079
G1 X110.758 Y107.496 E2.91055
G1 X110.729 Y106.838 E2.9203
G1 X110.78 Y106.182 E2.93005
G1 X110.91 Y105.536 E2.93981
G1 X111.118 Y104.911 E2.94957
G1 X111.399 Y104.316 E2.95932
G1 X111.751 Y103.76 E2.96906
G1 X112.167 Y103.25 E2.97881
M204 S625
M205 X6 Y6
G0 F4285.7 X112.555 Y103.351
M204 S500
M205 X5 Y5
G1 F1200 X113.217 Y102.791 E2.99166
G1 X113.451 Y102.625 E2.99591
G1 X113.992 Y102.29 E3.00533
G1 X114.571 Y102.025 E3.01477
G1 X115.179 Y101.835 E3.0242
G1 X115.806 Y101.722 E3.03364
G1 X116.442 Y101.689 E3.04307
G1 X117.01 Y101.727 E3.05151
G1 X117.366 Y101.771 E3.05682
G1 X117.991 Y101.889 E3.06624
G1 X118.598 Y102.084 E3.07569
G1 X119.175 Y102.354 E3.08512
G1 X119.713 Y102.693 E3.09454
G1 X120.205 Y103.098 E3.10398
G1 X120.621 Y103.534 E3.11291
G1 X120.724 Y103.656 E3.11528
G1 X121.103 Y104.168 E3.12471
G1 X121.416 Y104.723 E3.13415
G1 X121.656 Y105.312 E3.14357
G1 X121.821 Y105.927 E3.153
G1 X121.907 Y106.558 E3.16244
G1 X121.914 Y107.195 E3.17187
G1 X121.841 Y107.828 E3.18131
G1 X121.689 Y108.446 E3.19074
G1 X121.347 Y109.274 E3.20401
G1 X121.246 Y109.468 E3.20725
G1 X120.918 Y110.013 E3.21667
G1 X120.523 Y110.513 E3.22611
G1 X120.069 Y110.959 E3.23554
G1 X119.562 Y111.345 E3.24498
G1 X119.011 Y111.665 E3.25442
G1 X118.425 Y111.913 E3.26384
G1 X117.681 Y112.112 E3.27525
G1 X117.436 Y112.158 E3.27895
G1 X116.804 Y112.236 E3.28838
G1 X116.168 Y112.234 E3.2978
G1 X115.522 Y112.15 E3.30745
G1 X115.242 Y112.095 E3.31168
G1 X114.626 Y111.933 E3.32111
G1 X114.035 Y111.696 E3.33055
G1 X113.478 Y111.386 E3.33999
G1 X112.965 Y111.009 E3.34942
G1 X112.503 Y110.57 E3.35886
G1 X112.1 Y110.078 E3.36828
G1 X111.761 Y109.538 E3.37773
G1 X111.448 Y108.843 E3.38902
G1 X111.381 Y108.658 E3.39193
G1 X111.202 Y108.047 E3.40136
G1 X111.102 Y107.418 E3.4108
G1 X111.08 Y106.782 E3.42022
G1 X111.139 Y106.147 E3.42967
G1 X111.276 Y105.526 E3.43909
G1 X111.491 Y104.926 E3.44853
G1 X111.778 Y104.358 E3.45796
G1 X112.135 Y103.83 E3.4674
G1 X112.555 Y103.351 E3.47684
M204 S625
M205 X6 Y6
G0 F4285.7 X112.52 Y103.909
M204 S500
M205 X5 Y5
G1 F1200 X112.943 Y103.463 E3.48594
G1 X113.419 Y103.076 E3.49503
G1 X113.653 Y102.91 E3.49928
G1 X114.176 Y102.588 E3.50838
G1 X114.737 Y102.336 E3.51749
G1 X115.326 Y102.16 E3.5266
G1 X115.932 Y102.061 E3.53569
G1 X116.546 Y102.042 E3.54479
G1 X116.967 Y102.075 E3.55105
G1 X117.323 Y102.119 E3.55636
G1 X117.926 Y102.234 E3.56545
G1 X118.51 Y102.426 E3.57456
G1 X119.064 Y102.692 E3.58366
G1 X119.578 Y103.028 E3.59276
G1 X120.045 Y103.428 E3.60187
G1 X120.353 Y103.76 E3.60858
G1 X120.456 Y103.882 E3.61094
G1 X120.821 Y104.376 E3.62004
G1 X121.119 Y104.914 E3.62915
G1 X121.345 Y105.485 E3.63825
G1 X121.494 Y106.081 E3.64735
G1 X121.565 Y106.692 E3.65646
G1 X121.556 Y107.306 E3.66556
G1 X121.467 Y107.914 E3.67466
G1 X121.301 Y108.506 E3.68377
G1 X121.037 Y109.112 E3.69356
G1 X120.936 Y109.306 E3.6968
G1 X120.617 Y109.831 E3.7059
G1 X120.233 Y110.311 E3.715
G1 X119.79 Y110.737 E3.72411
G1 X119.296 Y111.101 E3.7332
G1 X118.758 Y111.399 E3.74231
G1 X118.186 Y111.624 E3.75141
G1 X117.617 Y111.768 E3.76011
G1 X117.372 Y111.814 E3.7638
G1 X116.762 Y111.888 E3.7729
G1 X116.147 Y111.882 E3.78201
G1 X115.589 Y111.806 E3.79036
G1 X115.309 Y111.751 E3.79458
G1 X114.715 Y111.594 E3.80368
G1 X114.147 Y111.361 E3.81278
G1 X113.613 Y111.056 E3.82189
G1 X113.124 Y110.684 E3.83099
G1 X112.687 Y110.252 E3.84009
G1 X112.31 Y109.767 E3.84919
G1 X111.998 Y109.237 E3.8583
G1 X111.777 Y108.724 E3.86658
G1 X111.71 Y108.539 E3.86949
G1 X111.539 Y107.949 E3.87859
G1 X111.446 Y107.341 E3.8877
G1 X111.432 Y106.727 E3.8968
G1 X111.499 Y106.116 E3.90591
G1 X111.644 Y105.519 E3.91501
G1 X111.865 Y104.946 E3.9241
G1 X112.159 Y104.406 E3.93321
G1 X112.52 Y103.909 E3.94231
M204 S625
M205 X6 Y6
G0 F4285.7 X112.906 Y103.998
M204 S500
M205 X5 Y5
G1 F1200 X113.331 Y103.587 E3.95107
G1 X113.622 Y103.362 E3.95652
G1 X113.856 Y103.196 E3.96077
G1 X114.36 Y102.887 E3.96953
G1 X114.901 Y102.649 E3.97828
G1 X115.47 Y102.486 E3.98705
G1 X116.055 Y102.402 E3.9958
G1 X116.924 Y102.422 E4.00868
G1 X117.28 Y102.466 E4.01399
G1 X117.86 Y102.578 E4.02274
G1 X118.42 Y102.767 E4.0315
G1 X118.95 Y103.03 E4.04026
G1 X119.439 Y103.362 E4.04902
G1 X119.879 Y103.757 E4.05778
G1 X120.086 Y103.986 E4.06235
G1 X120.189 Y104.108 E4.06472
G1 X120.539 Y104.584 E4.07347
G1 X120.822 Y105.104 E4.08224
G1 X121.031 Y105.656 E4.09098
G1 X121.165 Y106.232 E4.09974
G1 X121.22 Y106.821 E4.1085
G1 X121.194 Y107.412 E4.11727
G1 X121.09 Y107.994 E4.12602
G1 X120.908 Y108.556 E4.13478
G1 X120.727 Y108.95 E4.1412
G1 X120.626 Y109.144 E4.14444
G1 X120.318 Y109.649 E4.1532
G1 X119.945 Y110.108 E4.16196
G1 X119.513 Y110.512 E4.17072
G1 X119.031 Y110.854 E4.17948
G1 X118.507 Y111.128 E4.18824
G1 X117.951 Y111.329 E4.197
G1 X117.552 Y111.424 E4.20307
G1 X117.307 Y111.47 E4.20676
G1 X116.72 Y111.539 E4.21552
G1 X116.129 Y111.529 E4.22428
G1 X115.657 Y111.463 E4.23134
G1 X115.377 Y111.408 E4.23556
G1 X114.806 Y111.255 E4.24432
G1 X114.26 Y111.027 E4.25308
G1 X113.751 Y110.727 E4.26184
G1 X113.286 Y110.361 E4.2706
G1 X112.875 Y109.935 E4.27937
G1 X112.526 Y109.459 E4.28811
G1 X112.243 Y108.939 E4.29688
G1 X112.106 Y108.605 E4.30223
G1 X112.039 Y108.42 E4.30515
G1 X111.876 Y107.851 E4.31391
G1 X111.791 Y107.266 E4.32267
G1 X111.785 Y106.675 E4.33143
G1 X111.86 Y106.089 E4.34018
G1 X112.012 Y105.517 E4.34894
G1 X112.241 Y104.972 E4.3577
G1 X112.54 Y104.462 E4.36646
G1 X112.906 Y103.998 E4.37521
M204 S625
M205 X6 Y6
G0 F4285.7 X113.293 Y104.098
M204 S500
M205 X5 Y5
G1 F1200 X113.824 Y103.647 E4.38553
G1 X114.058 Y103.481 E4.38978
G1 X114.543 Y103.186 E4.39819
G1 X115.064 Y102.963 E4.40659
G1 X115.611 Y102.814 E4.41499
G1 X116.174 Y102.745 E4.42339
G1 X116.881 Y102.769 E4.43387
G1 X117.237 Y102.813 E4.43918
G1 X117.793 Y102.922 E4.44757
G1 X118.329 Y103.109 E4.45598
G1 X118.833 Y103.368 E4.46438
G1 X119.296 Y103.696 E4.47278
G1 X119.818 Y104.211 E4.48364
