;START_OF_HEADER
;HEADER_VERSION:0.1
;FLAVOR:Griffin
;GENERATOR.NAME:Cura_SteamEngine
;GENERATOR.VERSION:3.1.0
;GENERATOR.BUILD_DATE:2018-02-01
;TARGET_MACHINE.NAME:Ultimaker 3
;EXTRUDER_TRAIN.0.INITIAL_TEMPERATURE:205
;EXTRUDER_TRAIN.0.MATERIAL.VOLUME_USED:64
;EXTRUDER_TRAIN.0.MATERIAL.GUID:506c9f0d-e3aa-4bd4-b2d2-23e2425b1aa9
;EXTRUDER_TRAIN.0.NOZZLE.DIAMETER:0.4
;EXTRUDER_TRAIN.0.NOZZLE.NAME:AA 0.4
;BUILD_PLATE.INITIAL_TEMPERATURE:60
;PRINT.TIME:64
;PRINT.SIZE.MIN.X:9
;PRINT.SIZE.MIN.Y:6
;PRINT.SIZE.MIN.Z:0.27
;PRINT.SIZE.MAX.X:124.325
;PRINT.SIZE.MAX.Y:115.325
;PRINT.SIZE.MAX.Z:2
;END_OF_HEADER
;Generated with Cura_SteamEngine 3.1.0
T0
M82 ; absolute extrusion mode

G92 E0
M109 S205
G0 F15000 X9 Y6 Z2
G280
G1 F1500 E-6.5
;LAYER_COUNT:19
;LAYER:0
M107
M204 S625
M205 X6 Y6
G0 F4285.7 X110.543 Y101.808 Z0.27
M204 S500
M205 X5 Y5
;TYPE:SKIRT
G1 F1500 E0
G1 F1200 X111.079 Y101.3 E0.01094
G1 X111.667 Y100.853 E0.02188
G1 X112.3 Y100.472 E0.03283
G1 X112.97 Y100.161 E0.04377
G1 X113.67 Y99.925 E0.05471
G1 X114.391 Y99.766 E0.06565
G1 X115.126 Y99.685 E0.0766
G1 X115.5 Y99.675 E0.08214
G1 X117.5 Y99.675 E0.11177
G1 X118.238 Y99.715 E0.12272
G1 X118.966 Y99.834 E0.13364
G1 X119.678 Y100.032 E0.14459
G1 X120.364 Y100.305 E0.15553
G1 X121.017 Y100.651 E0.16648
G1 X121.629 Y101.065 E0.17742
G1 X122.192 Y101.543 E0.18836
G1 X122.7 Y102.079 E0.1993
G1 X123.147 Y102.667 E0.21024
G1 X123.528 Y103.3 E0.22119
G1 X123.839 Y103.97 E0.23213
G1 X124.075 Y104.67 E0.24307
G1 X124.234 Y105.391 E0.25401
G1 X124.315 Y106.126 E0.26496
G1 X124.325 Y106.5 E0.2705
G1 X124.325 Y108.5 E0.30013
G1 X124.285 Y109.238 E0.31108
G1 X124.166 Y109.966 E0.32201
G1 X123.968 Y110.678 E0.33295
G1 X123.695 Y111.364 E0.34389
G1 X123.349 Y112.017 E0.35484
G1 X122.935 Y112.629 E0.36578
G1 X122.457 Y113.192 E0.37672
G1 X121.921 Y113.7 E0.38766
G1 X121.333 Y114.147 E0.3986
G1 X120.7 Y114.528 E0.40955
G1 X120.03 Y114.839 E0.42049
G1 X119.33 Y115.075 E0.43143
G1 X118.609 Y115.234 E0.44237
G1 X117.874 Y115.315 E0.45332
G1 X117.5 Y115.325 E0.45887
G1 X115.5 Y115.325 E0.48849
G1 X114.762 Y115.285 E0.49944
G1 X114.034 Y115.166 E0.51037
G1 X113.322 Y114.968 E0.52132
G1 X112.636 Y114.695 E0.53225
G1 X111.983 Y114.349 E0.5432
G1 X111.371 Y113.935 E0.55415
G1 X110.808 Y113.457 E0.56509
G1 X110.3 Y112.921 E0.57603
G1 X109.853 Y112.333 E0.58697
G1 X109.472 Y111.7 E0.59791
G1 X109.161 Y111.03 E0.60885
G1 X108.925 Y110.33 E0.6198
G1 X108.766 Y109.609 E0.63073
G1 X108.685 Y108.874 E0.64169
G1 X108.675 Y108.5 E0.64723
G1 X108.675 Y106.5 E0.67686
G1 X108.715 Y105.762 E0.6878
G1 X108.834 Y105.034 E0.69873
G1 X109.032 Y104.322 E0.70968
G1 X109.305 Y103.636 E0.72061
G1 X109.651 Y102.983 E0.73156
G1 X110.065 Y102.371 E0.74251
G1 X110.543 Y101.808 E0.75345
M204 S625
M205 X6 Y6
G0 F4285.7 X110.889 Y101.955
M204 S500
M205 X5 Y5
G1 F1200 X111.421 Y101.471 E0.7641
G1 X112.004 Y101.05 E0.77475
G1 X112.631 Y100.696 E0.78542
G1 X113.292 Y100.413 E0.79607
G1 X113.981 Y100.206 E0.80673
G1 X114.689 Y100.076 E0.81739
G1 X115.5 Y100.025 E0.82943
G1 X117.5 Y100.025 E0.85906
G1 X118.218 Y100.065 E0.86971
G1 X118.928 Y100.184 E0.88037
G1 X119.62 Y100.382 E0.89103
G1 X120.285 Y100.655 E0.90168
G1 X120.917 Y101 E0.91235
G1 X121.506 Y101.413 E0.92301
G1 X122.045 Y101.889 E0.93366
G1 X122.529 Y102.421 E0.94431
G1 X122.95 Y103.004 E0.95496
G1 X123.304 Y103.631 E0.96563
G1 X123.587 Y104.292 E0.97628
G1 X123.794 Y104.981 E0.98694
G1 X123.924 Y105.689 E0.9976
G1 X123.975 Y106.5 E1.00964
G1 X123.975 Y108.5 E1.03927
G1 X123.935 Y109.218 E1.04992
G1 X123.816 Y109.928 E1.06058
G1 X123.618 Y110.62 E1.07124
G1 X123.345 Y111.285 E1.08189
G1 X123 Y111.917 E1.09256
G1 X122.587 Y112.506 E1.10322
G1 X122.111 Y113.045 E1.11387
G1 X121.579 Y113.529 E1.12452
G1 X120.996 Y113.95 E1.13517
G1 X120.369 Y114.304 E1.14584
G1 X119.708 Y114.587 E1.15649
G1 X119.019 Y114.794 E1.16715
G1 X118.311 Y114.924 E1.17781
G1 X117.5 Y114.975 E1.18985
G1 X115.5 Y114.975 E1.21948
G1 X114.782 Y114.935 E1.23013
G1 X114.072 Y114.816 E1.24079
G1 X113.38 Y114.618 E1.25145
G1 X112.715 Y114.345 E1.2621
G1 X112.083 Y114 E1.27277
G1 X111.494 Y113.587 E1.28343
G1 X110.955 Y113.111 E1.29408
G1 X110.471 Y112.579 E1.30473
G1 X110.05 Y111.996 E1.31538
G1 X109.696 Y111.369 E1.32605
G1 X109.413 Y110.708 E1.3367
G1 X109.206 Y110.019 E1.34736
G1 X109.076 Y109.311 E1.35802
G1 X109.025 Y108.5 E1.37006
G1 X109.025 Y106.5 E1.39969
G1 X109.065 Y105.782 E1.41034
G1 X109.184 Y105.072 E1.421
G1 X109.382 Y104.38 E1.43166
G1 X109.655 Y103.715 E1.44231
G1 X110 Y103.083 E1.45298
G1 X110.413 Y102.494 E1.46364
G1 X110.889 Y101.955 E1.47429
M204 S625
M205 X6 Y6
G0 F4285.7 X111.233 Y102.106
M204 S500
M205 X5 Y5
G1 F1200 X111.762 Y101.648 E1.48465
G1 X112.34 Y101.253 E1.49502
G1 X112.959 Y100.927 E1.50539
G1 X113.611 Y100.673 E1.51575
G1 X114.288 Y100.496 E1.52612
G1 X114.981 Y100.397 E1.53649
G1 X115.5 Y100.375 E1.54418
G1 X117.5 Y100.375 E1.57381
G1 X118.199 Y100.415 E1.58418
G1 X118.888 Y100.534 E1.59454
G1 X119.559 Y100.732 E1.6049
G1 X120.204 Y101.004 E1.61527
G1 X120.813 Y101.348 E1.62563
G1 X121.379 Y101.76 E1.636
G1 X121.894 Y102.233 E1.64636
G1 X122.352 Y102.762 E1.65673
G1 X122.747 Y103.34 E1.6671
G1 X123.073 Y103.959 E1.67746
G1 X123.327 Y104.611 E1.68782
G1 X123.504 Y105.288 E1.69819
G1 X123.603 Y105.981 E1.70856
G1 X123.625 Y106.5 E1.71626
G1 X123.625 Y108.5 E1.74588
G1 X123.585 Y109.199 E1.75625
G1 X123.466 Y109.888 E1.76661
G1 X123.268 Y110.559 E1.77697
G1 X122.996 Y111.204 E1.78734
G1 X122.652 Y111.813 E1.7977
G1 X122.24 Y112.379 E1.80807
G1 X121.767 Y112.894 E1.81843
G1 X121.238 Y113.352 E1.8288
G1 X120.66 Y113.747 E1.83917
G1 X120.041 Y114.073 E1.84953
G1 X119.389 Y114.327 E1.8599
G1 X118.712 Y114.504 E1.87026
G1 X118.019 Y114.603 E1.88063
G1 X117.5 Y114.625 E1.88833
G1 X115.5 Y114.625 E1.91795
G1 X114.801 Y114.585 E1.92833
G1 X114.112 Y114.466 E1.93868
G1 X113.441 Y114.268 E1.94905
G1 X112.796 Y113.996 E1.95942
G1 X112.187 Y113.652 E1.96978
G1 X111.621 Y113.24 E1.98015
G1 X111.106 Y112.767 E1.99051
G1 X110.648 Y112.238 E2.00087
G1 X110.253 Y111.66 E2.01124
G1 X109.927 Y111.041 E2.0216
G1 X109.673 Y110.389 E2.03197
G1 X109.496 Y109.712 E2.04234
G1 X109.397 Y109.019 E2.05271
G1 X109.375 Y108.5 E2.0604
G1 X109.375 Y106.5 E2.09003
G1 X109.415 Y105.801 E2.1004
G1 X109.534 Y105.112 E2.11076
G1 X109.732 Y104.441 E2.12112
G1 X110.004 Y103.796 E2.13149
G1 X110.348 Y103.187 E2.14185
G1 X110.76 Y102.621 E2.15222
G1 X111.233 Y102.106 E2.16258
M204 S625
M205 X6 Y6
G0 F4285.7 X111.107 Y102.752
M204 S500
M205 X5 Y5
G1 F1200 X111.577 Y102.262 E2.17264
G1 X112.102 Y101.831 E2.1827
G1 X112.674 Y101.464 E2.19277
G1 X113.285 Y101.167 E2.20283
G1 X113.927 Y100.943 E2.2129
G1 X114.59 Y100.797 E2.22296
G1 X115.5 Y100.725 E2.23648
G1 X117.5 Y100.725 E2.26611
G1 X118.178 Y100.765 E2.27617
G1 X118.847 Y100.884 E2.28623
G1 X119.497 Y101.081 E2.2963
G1 X120.12 Y101.353 E2.30637
G1 X120.706 Y101.697 E2.31643
G1 X121.248 Y102.107 E2.3265
G1 X121.738 Y102.577 E2.33656
G1 X122.169 Y103.102 E2.34662
G1 X122.536 Y103.674 E2.35669
G1 X122.833 Y104.285 E2.36675
G1 X123.057 Y104.927 E2.37682
G1 X123.203 Y105.59 E2.38688
G1 X123.275 Y106.5 E2.4004
G1 X123.275 Y108.5 E2.43003
G1 X123.235 Y109.178 E2.44009
G1 X123.116 Y109.847 E2.45015
G1 X122.919 Y110.497 E2.46021
G1 X122.647 Y111.12 E2.47028
G1 X122.303 Y111.706 E2.48035
G1 X121.893 Y112.248 E2.49042
G1 X121.423 Y112.738 E2.50047
G1 X120.898 Y113.169 E2.51054
G1 X120.326 Y113.536 E2.5206
G1 X119.715 Y113.833 E2.53067
G1 X119.073 Y114.057 E2.54074
G1 X118.41 Y114.203 E2.5508
G1 X117.5 Y114.275 E2.56432
G1 X115.5 Y114.275 E2.59395
G1 X114.822 Y114.235 E2.60401
G1 X114.153 Y114.116 E2.61407
G1 X113.503 Y113.919 E2.62413
G1 X112.88 Y113.647 E2.6342
G1 X112.294 Y113.303 E2.64427
G1 X111.752 Y112.893 E2.65434
G1 X111.262 Y112.423 E2.66439
G1 X110.831 Y111.898 E2.67446
G1 X110.464 Y111.326 E2.68452
G1 X110.167 Y110.715 E2.69459
G1 X109.943 Y110.073 E2.70466
G1 X109.797 Y109.41 E2.71472
G1 X109.725 Y108.5 E2.72824
G1 X109.725 Y106.5 E2.75786
G1 X109.765 Y105.822 E2.76793
G1 X109.884 Y105.153 E2.77799
G1 X110.081 Y104.503 E2.78805
G1 X110.353 Y103.88 E2.79812
G1 X110.697 Y103.294 E2.80819
G1 X111.107 Y102.752 E2.81826
M204 S625
M205 X6 Y6
G0 F4285.7 X111.453 Y102.887
M204 S500
M205 X5 Y5
G1 F1200 X111.92 Y102.424 E2.828
G1 X112.441 Y102.02 E2.83776
G1 X113.006 Y101.682 E2.84752
G1 X113.608 Y101.416 E2.85727
G1 X114.238 Y101.224 E2.86702
G1 X114.886 Y101.11 E2.87677
G1 X115.5 Y101.075 E2.88588
G1 X117.5 Y101.075 E2.9155
G1 X118.157 Y101.115 E2.92526
G1 X118.805 Y101.234 E2.93501
G1 X119.433 Y101.431 E2.94476
G1 X120.033 Y101.703 E2.95452
G1 X120.596 Y102.045 E2.96428
G1 X121.113 Y102.453 E2.97404
G1 X121.576 Y102.92 E2.98378
G1 X121.98 Y103.441 E2.99354
G1 X122.318 Y104.006 E3.0033
G1 X122.584 Y104.608 E3.01305
G1 X122.776 Y105.238 E3.0228
G1 X122.89 Y105.886 E3.03255
G1 X122.925 Y106.5 E3.04166
G1 X122.925 Y108.5 E3.07129
G1 X122.885 Y109.157 E3.08104
G1 X122.766 Y109.805 E3.0908
G1 X122.569 Y110.433 E3.10055
G1 X122.297 Y111.033 E3.1103
G1 X121.955 Y111.596 E3.12006
G1 X121.547 Y112.113 E3.12982
G1 X121.08 Y112.576 E3.13956
G1 X120.559 Y112.98 E3.14933
G1 X119.994 Y113.318 E3.15908
G1 X119.392 Y113.584 E3.16883
G1 X118.762 Y113.776 E3.17858
G1 X118.114 Y113.89 E3.18833
G1 X117.5 Y113.925 E3.19744
G1 X115.5 Y113.925 E3.22707
G1 X114.843 Y113.885 E3.23682
G1 X114.195 Y113.766 E3.24658
G1 X113.567 Y113.569 E3.25633
G1 X112.967 Y113.297 E3.26609
G1 X112.404 Y112.955 E3.27584
G1 X111.887 Y112.547 E3.2856
G1 X111.424 Y112.08 E3.29534
G1 X111.02 Y111.559 E3.30511
G1 X110.682 Y110.994 E3.31486
G1 X110.416 Y110.392 E3.32461
G1 X110.224 Y109.762 E3.33437
G1 X110.11 Y109.114 E3.34411
G1 X110.075 Y108.5 E3.35322
G1 X110.075 Y106.5 E3.38285
G1 X110.115 Y105.843 E3.3926
G1 X110.234 Y105.195 E3.40236
G1 X110.431 Y104.567 E3.41211
G1 X110.703 Y103.967 E3.42187
G1 X111.045 Y103.404 E3.43163
G1 X111.453 Y102.887 E3.44138
M204 S625
M205 X6 Y6
G0 F4285.7 X111.799 Y103.028
M204 S500
M205 X5 Y5
G1 F1200 X112.263 Y102.592 E3.45081
G1 X112.778 Y102.217 E3.46025
G1 X113.335 Y101.91 E3.46967
G1 X113.927 Y101.675 E3.47911
G1 X114.544 Y101.516 E3.48855
G1 X115.176 Y101.435 E3.49798
G1 X115.5 Y101.425 E3.50279
G1 X117.5 Y101.425 E3.53241
G1 X118.136 Y101.465 E3.54185
G1 X118.761 Y101.584 E3.55128
G1 X119.367 Y101.781 E3.56072
G1 X119.943 Y102.052 E3.57015
G1 X120.481 Y102.393 E3.57958
G1 X120.972 Y102.799 E3.58902
G1 X121.408 Y103.263 E3.59845
G1 X121.783 Y103.778 E3.60789
G1 X122.09 Y104.335 E3.61731
G1 X122.325 Y104.927 E3.62674
G1 X122.484 Y105.544 E3.63618
G1 X122.565 Y106.176 E3.64562
G1 X122.575 Y106.5 E3.65042
G1 X122.575 Y108.5 E3.68005
G1 X122.535 Y109.136 E3.68949
G1 X122.416 Y109.761 E3.69891
G1 X122.219 Y110.367 E3.70835
G1 X121.948 Y110.943 E3.71778
G1 X121.607 Y111.481 E3.72722
G1 X121.201 Y111.972 E3.73666
G1 X120.737 Y112.408 E3.74609
G1 X120.222 Y112.783 E3.75553
G1 X119.665 Y113.09 E3.76495
G1 X119.073 Y113.325 E3.77438
G1 X118.456 Y113.484 E3.78382
G1 X117.824 Y113.565 E3.79326
G1 X117.5 Y113.575 E3.79806
G1 X115.5 Y113.575 E3.82769
G1 X114.864 Y113.535 E3.83713
G1 X114.239 Y113.416 E3.84655
G1 X113.633 Y113.219 E3.85599
G1 X113.057 Y112.948 E3.86542
G1 X112.519 Y112.607 E3.87486
G1 X112.028 Y112.201 E3.88429
G1 X111.592 Y111.737 E3.89373
G1 X111.217 Y111.222 E3.90316
G1 X110.91 Y110.665 E3.91258
G1 X110.675 Y110.073 E3.92202
G1 X110.516 Y109.456 E3.93146
G1 X110.435 Y108.824 E3.9409
G1 X110.425 Y108.5 E3.9457
G1 X110.425 Y106.5 E3.97532
G1 X110.465 Y105.864 E3.98476
G1 X110.584 Y105.239 E3.99419
G1 X110.781 Y104.633 E4.00363
G1 X111.052 Y104.057 E4.01306
G1 X111.393 Y103.519 E4.02249
G1 X111.799 Y103.028 E4.03193
M204 S625
M205 X6 Y6
G0 F4285.7 X112.144 Y103.174
M204 S500
M205 X5 Y5
G1 F1200 X112.604 Y102.767 E4.04103
G1 X113.113 Y102.422 E4.05014
G1 X113.662 Y102.147 E4.05923
G1 X114.243 Y101.945 E4.06835
G1 X114.844 Y101.821 E4.07744
G1 X115.5 Y101.775 E4.08718
G1 X117.5 Y101.775 E4.1168
G1 X118.113 Y101.815 E4.1259
G1 X118.716 Y101.934 E4.13501
G1 X119.298 Y102.131 E4.14411
G1 X119.85 Y102.401 E4.15321
G1 X120.362 Y102.741 E4.16232
G1 X120.826 Y103.144 E4.17142
G1 X121.233 Y103.604 E4.18052
G1 X121.578 Y104.113 E4.18963
G1 X121.853 Y104.662 E4.19873
G1 X122.055 Y105.243 E4.20784
G1 X122.179 Y105.844 E4.21693
G1 X122.225 Y106.5 E4.22667
G1 X122.225 Y108.5 E4.2563
G1 X122.185 Y109.113 E4.2654
G1 X122.066 Y109.716 E4.2745
G1 X121.869 Y110.298 E4.2836
G1 X121.599 Y110.85 E4.2927
G1 X121.259 Y111.362 E4.30181
G1 X120.856 Y111.826 E4.31091
G1 X120.396 Y112.233 E4.32001
G1 X119.887 Y112.578 E4.32912
G1 X119.338 Y112.853 E4.33822
G1 X118.757 Y113.055 E4.34733
G1 X118.156 Y113.179 E4.35642
G1 X117.5 Y113.225 E4.36616
G1 X115.5 Y113.225 E4.39579
G1 X114.887 Y113.185 E4.40489
G1 X114.284 Y113.066 E4.41399
G1 X113.702 Y112.869 E4.42309
G1 X113.15 Y112.599 E4.4322
G1 X112.638 Y112.259 E4.4413
G1 X112.174 Y111.856 E4.4504
G1 X111.767 Y111.396 E4.4595
G1 X111.422 Y110.887 E4.46861
G1 X111.147 Y110.338 E4.47771
G1 X110.945 Y109.757 E4.48682
G1 X110.821 Y109.156 E4.49591
G1 X110.775 Y108.5 E4.50565
G1 X110.775 Y106.5 E4.53528
G1 X110.815 Y105.887 E4.54438
G1 X110.934 Y105.284 E4.55348
G1 X111.131 Y104.702 E4.56258
G1 X111.401 Y104.15 E4.57169
G1 X111.741 Y103.638 E4.58079
G1 X112.144 Y103.174 E4.58989
M204 S625
M205 X6 Y6
G0 F4285.7 X112.488 Y103.327
M204 S500
M205 X5 Y5
G1 F1200 X112.944 Y102.95 E4.59866
G1 X113.446 Y102.637 E4.60742
G1 X113.985 Y102.396 E4.61617
G1 X114.553 Y102.229 E4.62494
G1 X115.137 Y102.14 E4.63369
G1 X115.5 Y102.125 E4.63907
G1 X117.5 Y102.125 E4.6687
G1 X118.09 Y102.165 E4.67746
G1 X118.669 Y102.284 E4.68621
G1 X119.227 Y102.48 E4.69497
G1 X119.753 Y102.75 E4.70373
G1 X120.238 Y103.088 E4.71249
G1 X120.673 Y103.488 E4.72124
G1 X121.05 Y103.944 E4.73001
G1 X121.363 Y104.446 E4.73877
G1 X121.604 Y104.985 E4.74752
G1 X121.771 Y105.553 E4.75629
G1 X121.86 Y106.137 E4.76504
G1 X121.875 Y106.5 E4.77042
G1 X121.875 Y108.5 E4.80005
G1 X121.835 Y109.09 E4.80881
G1 X121.716 Y109.669 E4.81756
G1 X121.52 Y110.227 E4.82632
G1 X121.25 Y110.753 E4.83508
G1 X120.912 Y111.238 E4.84384
G1 X120.512 Y111.673 E4.85259
G1 X120.056 Y112.05 E4.86136
G1 X119.554 Y112.363 E4.87012
G1 X119.015 Y112.604 E4.87887
G1 X118.447 Y112.771 E4.88764
G1 X117.863 Y112.86 E4.89639
G1 X117.5 Y112.875 E4.90177
G1 X115.5 Y112.875 E4.9314
G1 X114.91 Y112.835 E4.94016
G1 X114.331 Y112.716 E4.94891
G1 X113.773 Y112.52 E4.95767
G1 X113.247 Y112.25 E4.96643
G1 X112.762 Y111.912 E4.97519
G1 X112.327 Y111.512 E4.98394
G1 X111.95 Y111.056 E4.99271
G1 X111.637 Y110.554 E5.00147
G1 X111.396 Y110.015 E5.01022
G1 X111.229 Y109.447 E5.01899
G1 X111.14 Y108.863 E5.02774
G1 X111.125 Y108.5 E5.03312
G1 X111.125 Y106.5 E5.06275
G1 X111.165 Y105.91 E5.07151
G1 X111.284 Y105.331 E5.08026
G1 X111.48 Y104.773 E5.08902
G1 X111.75 Y104.247 E5.09778
G1 X112.088 Y103.762 E5.10654
G1 X112.488 Y103.327 E5.11529
M204 S625
M205 X6 Y6
G0 F4285.7 X112.435 Y103.892
M204 S500
M205 X5 Y5
G1 F1200 X112.832 Y103.487 E5.12369
G1 X113.282 Y103.141 E5.1321
G1 X113.776 Y102.863 E5.1405
G1 X114.304 Y102.657 E5.1489
G1 X114.856 Y102.527 E5.1573
G1 X115.5 Y102.475 E5.16687
G1 X117.5 Y102.475 E5.19649
G1 X118.066 Y102.515 E5.2049
G1 X118.62 Y102.634 E5.21329
G1 X119.152 Y102.83 E5.22169
G1 X119.652 Y103.098 E5.23009
G1 X120.108 Y103.435 E5.23849
G1 X120.513 Y103.832 E5.24689
G1 X120.859 Y104.282 E5.2553
G1 X121.137 Y104.776 E5.2637
G1 X121.343 Y105.304 E5.2721
G1 X121.473 Y105.856 E5.2805
G1 X121.525 Y106.5 E5.29007
G1 X121.525 Y108.5 E5.31969
G1 X121.485 Y109.066 E5.3281
G1 X121.366 Y109.62 E5.33649
G1 X121.17 Y110.152 E5.34489
G1 X120.902 Y110.652 E5.3533
G1 X120.565 Y111.108 E5.36169
G1 X120.168 Y111.513 E5.3701
G1 X119.718 Y111.859 E5.3785
G1 X119.224 Y112.137 E5.3869
G1 X118.696 Y112.343 E5.3953
G1 X118.144 Y112.473 E5.4037
G1 X117.5 Y112.525 E5.41327
G1 X115.5 Y112.525 E5.44289
G1 X114.934 Y112.485 E5.4513
G1 X114.38 Y112.366 E5.45969
G1 X113.848 Y112.17 E5.46809
G1 X113.348 Y111.902 E5.4765
G1 X112.892 Y111.565 E5.4849
G1 X112.487 Y111.168 E5.4933
G1 X112.141 Y110.718 E5.5017
