; generated by Slic3r 1.2.9 on 2019-03-23 at 21:01:55

; external perimeters extrusion width = 0.50mm
; perimeters extrusion width = 0.72mm
; infill extrusion width = 0.72mm
; solid infill extrusion width = 0.72mm
; top infill extrusion width = 0.72mm

M107
M104 S200 ; set temperature
G28 ; home all axes
G1 Z5 F5000 ; lift nozzle

M109 S200 ; wait for temperature to be reached
G21 ; set units to millimeters
G90 ; use absolute coordinates
M82 ; use absolute distances for extrusion
G92 E0
G1 Z0.350 F7800.000
G1 E-2.00000 F2400.00000
G92 E0
G1 X66.925 Y67.762 F7800.000
G1 E2.00000 F2400.00000
G1 X68.677 Y66.283 E2.07096 F1800.000
G1 X70.830 Y65.490 E2.14192
G1 X72.009 Y65.384 E2.17858
G1 X127.991 Y65.384 E3.91071
G1 X130.250 Y65.781 E3.98168
G1 X132.238 Y66.925 E4.05264 F1800.000
G1 X133.717 Y68.677 E4.12360
G1 X134.510 Y70.830 E4.19456
G1 X134.616 Y72.009 E4.23121
G1 X134.616 Y127.991 E5.96335
G1 X134.219 Y130.250 E6.03431
G1 X133.075 Y132.238 E6.10528
G1 X131.323 Y133.717 E6.17624
G1 X129.170 Y134.510 E6.24720
G1 X127.991 Y134.616 E6.28385
G1 X72.009 Y134.616 E8.01599
G1 X69.750 Y134.219 E8.08695
G1 X67.762 Y133.075 E8.15791
G1 X66.283 Y131.323 E8.22888
G1 X65.490 Y129.171 E8.29984
G1 X65.384 Y127.991 E8.33649
G1 X65.384 Y72.009 E10.06863
G1 X65.781 Y69.750 E10.13959
G1 X66.887 Y67.827 E10.20823
G1 E8.20823 F2400.00000
G92 E0
G1 X126.391 Y126.391 F7800.000
G1 E2.00000 F2400.00000
G1 X73.609 Y126.391 E3.63314 F1800.000
G1 X73.609 Y73.609 E5.26628
G1 X126.391 Y73.609 E6.89942
G1 X126.391 Y126.316 E8.53024
G1 X127.016 Y127.016 F7800.000
G1 X72.984 Y127.016 E10.20205 F1800.000
G1 X72.984 Y72.984 E11.87386
G1 X127.016 Y72.984 E13.54567
G1 X127.016 Y126.941 E15.21515
G1 X127.641 Y127.641 F7800.000
G1 X72.359 Y127.641 E16.92563 F1800.000
G1 X72.359 Y72.359 E18.63611
G1 X127.641 Y72.359 E20.34659
G1 X127.641 Y127.566 E22.05475
G1 X127.208 Y127.391 F7800.000
G1 X126.012 Y74.293 F7800.000
G1 X125.707 Y73.988 E22.06811 F1800.000
G1 X124.823 Y73.988 E22.09547
G1 X126.012 Y75.177 E22.14753
G1 X126.012 Y76.061 E22.17490
G1 X123.939 Y73.988 E22.26566
G1 X123.055 Y73.988 E22.29303
G1 X126.012 Y76.945 E22.42249
G1 X126.012 Y77.829 E22.44986
G1 X122.171 Y73.988 E22.61802
G1 X121.287 Y73.988 E22.64539
G1 X126.012 Y78.713 E22.85225
G1 X126.012 Y79.597 E22.87962
G1 X120.403 Y73.988 E23.12519
G1 X119.519 Y73.988 E23.15256
G1 X126.012 Y80.481 E23.43683
G1 X126.012 Y81.366 E23.46419
G1 X118.634 Y73.988 E23.78717
G1 X117.750 Y73.988 E23.81453
G1 X126.012 Y82.250 E24.17621
G1 X126.012 Y83.134 E24.20358
G1 X116.866 Y73.988 E24.60395
G1 X115.982 Y73.988 E24.63132
G1 X126.012 Y84.018 E25.07040
G1 X126.012 Y84.902 E25.09777
G1 X115.098 Y73.988 E25.57555
G1 X114.214 Y73.988 E25.60291
G1 X126.012 Y85.786 E26.11940
G1 X126.012 Y86.670 E26.14677
G1 X113.330 Y73.988 E26.70195
G1 X112.446 Y73.988 E26.72932
G1 X126.012 Y87.554 E27.32321
G1 X126.012 Y88.438 E27.35057
G1 X111.562 Y73.988 E27.98316
G1 X110.678 Y73.988 E28.01053
G1 X126.012 Y89.322 E28.68182
G1 X126.012 Y90.207 E28.70919
G1 X109.794 Y73.988 E29.41918
G1 X108.909 Y73.988 E29.44655
G1 X126.012 Y91.091 E30.19524
G1 X126.012 Y91.975 E30.22261
G1 X108.025 Y73.988 E31.01001
G1 X107.141 Y73.988 E31.03737
G1 X126.012 Y92.859 E31.86347
G1 X126.012 Y93.743 E31.89084
G1 X106.257 Y73.988 E32.75564
G1 X105.373 Y73.988 E32.78301
G1 X126.012 Y94.627 E33.68651
G1 X126.012 Y95.511 E33.71388
G1 X104.489 Y73.988 E34.65609
G1 X103.605 Y73.988 E34.68345
G1 X126.012 Y96.395 E35.66436
G1 X126.012 Y97.279 E35.69173
G1 X102.721 Y73.988 E36.71134
G1 X101.837 Y73.988 E36.73871
G1 X126.012 Y98.163 E37.79702
G1 X126.012 Y99.047 E37.82439
G1 X100.953 Y73.988 E38.92140
G1 X100.068 Y73.988 E38.94877
G1 X126.012 Y99.932 E40.08448
G1 X126.012 Y100.816 E40.11185
G1 X99.184 Y73.988 E41.28627
G1 X98.300 Y73.988 E41.31364
G1 X126.012 Y101.700 E42.52676
G1 X126.012 Y102.584 E42.55412
G1 X97.416 Y73.988 E43.80595
G1 X96.532 Y73.988 E43.83331
G1 X126.012 Y103.468 E45.12384
G1 X126.012 Y104.352 E45.15120
G1 X95.648 Y73.988 E46.48043
G1 X94.764 Y73.988 E46.50780
G1 X126.012 Y105.236 E47.87573
G1 X126.012 Y106.120 E47.90309
G1 X93.880 Y73.988 E49.30972
G1 X92.996 Y73.988 E49.33709
G1 X126.012 Y107.004 E50.78242
G1 X126.012 Y107.888 E50.80979
G1 X92.112 Y73.988 E52.29383
G1 X91.227 Y73.988 E52.32119
G1 X126.012 Y108.773 E53.84393
G1 X126.012 Y109.657 E53.87130
G1 X90.343 Y73.988 E55.43274
G1 X89.459 Y73.988 E55.46010
G1 X126.012 Y110.541 E57.06024
G1 X126.012 Y111.425 E57.08761
G1 X88.575 Y73.988 E58.72645
G1 X87.691 Y73.988 E58.75382
G1 X126.012 Y112.309 E60.43137
G1 X126.012 Y113.193 E60.45873
G1 X86.807 Y73.988 E62.17498
G1 X85.923 Y73.988 E62.20235
G1 X126.012 Y114.077 E63.95730
G1 X126.012 Y114.961 E63.98466
G1 X85.039 Y73.988 E65.77832
G1 X84.155 Y73.988 E65.80568
G1 X126.012 Y115.845 E67.63804
G1 X126.012 Y116.729 E67.66540
G1 X83.271 Y73.988 E69.53646
G1 X82.387 Y73.988 E69.56383
G1 X126.012 Y117.613 E71.47358
G1 X126.012 Y118.498 E71.50095
G1 X81.502 Y73.988 E73.44941
G1 X80.618 Y73.988 E73.47678
G1 X126.012 Y119.382 E75.46394
G1 X126.012 Y120.266 E75.49131
G1 X79.734 Y73.988 E77.51717
G1 X78.850 Y73.988 E77.54454
G1 X126.012 Y121.150 E79.60910
G1 X126.012 Y122.034 E79.63647
G1 X77.966 Y73.988 E81.73974
G1 X77.082 Y73.988 E81.76710
G1 X126.012 Y122.918 E83.90908
G1 X126.012 Y123.802 E83.93644
G1 X76.198 Y73.988 E86.11711
G1 X75.314 Y73.988 E86.14448
G1 X126.012 Y124.686 E88.36386
G1 X126.012 Y125.570 E88.39122
G1 X74.430 Y73.988 E90.64930
G1 X73.988 Y74.430 E90.66865
G1 X125.570 Y126.012 E92.92672
G1 X124.686 Y126.012 E92.95409
G1 X73.988 Y75.314 E95.17346
G1 X73.988 Y76.198 E95.20083
G1 X123.802 Y126.012 E97.38150
G1 X122.918 Y126.012 E97.40887
G1 X73.988 Y77.082 E99.55083
G1 X73.988 Y77.966 E99.57820
G1 X122.034 Y126.012 E101.68147
G1 X121.150 Y126.012 E101.70883
G1 X73.988 Y78.850 E103.77340
G1 X73.988 Y79.734 E103.80076
G1 X120.266 Y126.012 E105.82663
G1 X119.382 Y126.012 E105.85399
G1 X73.988 Y80.618 E107.84115
G1 X73.988 Y81.503 E107.86852
G1 X118.497 Y126.012 E109.81698
G1 X117.613 Y126.012 E109.84434
G1 X73.988 Y82.387 E111.75410
G1 X73.988 Y83.271 E111.78147
G1 X116.729 Y126.012 E113.65252
G1 X115.845 Y126.012 E113.67989
G1 X73.988 Y84.155 E115.51224
G1 X73.988 Y85.039 E115.53960
G1 X114.961 Y126.012 E117.33325
G1 X114.077 Y126.012 E117.36062
G1 X73.988 Y85.923 E119.11557
G1 X73.988 Y86.807 E119.14293
G1 X113.193 Y126.012 E120.85918
G1 X112.309 Y126.012 E120.88655
G1 X73.988 Y87.691 E122.56409
G1 X73.988 Y88.575 E122.59146
G1 X111.425 Y126.012 E124.23030
G1 X110.541 Y126.012 E124.25766
G1 X73.988 Y89.459 E125.85780
G1 X73.988 Y90.343 E125.88517
G1 X109.657 Y126.012 E127.44661
G1 X108.772 Y126.012 E127.47397
G1 X73.988 Y91.228 E128.99671
G1 X73.988 Y92.112 E129.02407
G1 X107.888 Y126.012 E130.50811
G1 X107.004 Y126.012 E130.53547
G1 X73.988 Y92.996 E131.98080
G1 X73.988 Y93.880 E132.00817
G1 X106.120 Y126.012 E133.41480
G1 X105.236 Y126.012 E133.44217
G1 X73.988 Y94.764 E134.81009
G1 X73.988 Y95.648 E134.83746
G1 X104.352 Y126.012 E136.16668
G1 X103.468 Y126.012 E136.19405
G1 X73.988 Y96.532 E137.48457
G1 X73.988 Y97.416 E137.51194
G1 X102.584 Y126.012 E138.76376
G1 X101.700 Y126.012 E138.79113
G1 X73.988 Y98.300 E140.00425
G1 X73.988 Y99.184 E140.03161
G1 X100.816 Y126.012 E141.20603
G1 X99.931 Y126.012 E141.23339
G1 X73.988 Y100.069 E142.36911
G1 X73.988 Y100.953 E142.39648
G1 X99.047 Y126.012 E143.49349
G1 X98.163 Y126.012 E143.52085
G1 X73.988 Y101.837 E144.57916
G1 X73.988 Y102.721 E144.60653
G1 X97.279 Y126.012 E145.62614
G1 X96.395 Y126.012 E145.65351
G1 X73.988 Y103.605 E146.63441
G1 X73.988 Y104.489 E146.66178
G1 X95.511 Y126.012 E147.60398
G1 X94.627 Y126.012 E147.63135
G1 X73.988 Y105.373 E148.53485
G1 X73.988 Y106.257 E148.56222
G1 X93.743 Y126.012 E149.42702
G1 X92.859 Y126.012 E149.45438
G1 X73.988 Y107.141 E150.28048
G1 X73.988 Y108.025 E150.30785
G1 X91.975 Y126.012 E151.09524
G1 X91.091 Y126.012 E151.12261
G1 X73.988 Y108.909 E151.87130
G1 X73.988 Y109.794 E151.89867
G1 X90.206 Y126.012 E152.60866
G1 X89.322 Y126.012 E152.63603
G1 X73.988 Y110.678 E153.30732
G1 X73.988 Y111.562 E153.33468
G1 X88.438 Y126.012 E153.96727
G1 X87.554 Y126.012 E153.99464
G1 X73.988 Y112.446 E154.58852
G1 X73.988 Y113.330 E154.61589
G1 X86.670 Y126.012 E155.17107
G1 X85.786 Y126.012 E155.19844
G1 X73.988 Y114.214 E155.71492
G1 X73.988 Y115.098 E155.74229
G1 X84.902 Y126.012 E156.22006
G1 X84.018 Y126.012 E156.24743
G1 X73.988 Y115.982 E156.68651
G1 X73.988 Y116.866 E156.71387
G1 X83.134 Y126.012 E157.11425
G1 X82.250 Y126.012 E157.14162
G1 X73.988 Y117.750 E157.50329
G1 X73.988 Y118.635 E157.53065
G1 X81.365 Y126.012 E157.85363
G1 X80.481 Y126.012 E157.88099
G1 X73.988 Y119.519 E158.16526
G1 X73.988 Y120.403 E158.19263
G1 X79.597 Y126.012 E158.43819
G1 X78.713 Y126.012 E158.46556
G1 X73.988 Y121.287 E158.67242
G1 X73.988 Y122.171 E158.69979
G1 X77.829 Y126.012 E158.86795
G1 X76.945 Y126.012 E158.89532
G1 X73.988 Y123.055 E159.02478
G1 X73.988 Y123.939 E159.05215
G1 X76.061 Y126.012 E159.14290
G1 X75.177 Y126.012 E159.17027
G1 X73.988 Y124.823 E159.22233
G1 X73.988 Y125.707 E159.24969
G1 X74.293 Y126.012 E159.26305
G1 Z0.650 F7800.000
G1 X126.541 Y126.541 F7800.000
G1 X73.459 Y126.541 E160.73756 F3600.000
G1 X73.459 Y73.459 E162.21206
G1 X126.541 Y73.459 E163.68657
G1 X126.541 Y126.466 E165.15900
G1 X127.196 Y127.196 F7800.000
G1 X72.804 Y127.196 E166.66986 F3600.000
G1 X72.804 Y72.804 E168.18073
G1 X127.196 Y72.804 E169.69160
G1 X127.196 Y127.121 E171.20039
G1 X127.741 Y127.741 F7800.000
G1 X72.259 Y127.741 E172.22614 F1800.000
G1 X72.259 Y72.259 E173.25190
G1 X127.741 Y72.259 E174.27765
G1 X127.741 Y127.666 E175.30202
G1 X127.308 Y127.491 F7800.000
G1 X125.826 Y126.144 F7800.000
G1 X126.144 Y125.826 E175.31453 F1200.000
G1 X126.144 Y124.898 E175.34038
G1 X124.898 Y126.144 E175.38944
G1 X123.970 Y126.144 E175.41529
G1 X126.144 Y123.970 E175.50091
G1 X126.144 Y123.042 E175.52675
G1 X123.042 Y126.144 E175.64892
G1 X122.114 Y126.144 E175.67477
G1 X126.144 Y122.114 E175.83349
G1 X126.144 Y121.186 E175.85934
G1 X121.186 Y126.144 E176.05461
G1 X120.258 Y126.144 E176.08046
G1 X126.144 Y120.258 E176.31228
G1 X126.144 Y119.330 E176.33813
G1 X119.330 Y126.144 E176.60651
G1 X118.402 Y126.144 E176.63235
G1 X126.144 Y118.402 E176.93728
G1 X126.144 Y117.474 E176.96313
G1 X117.474 Y126.144 E177.30461
G1 X116.546 Y126.144 E177.33046
G1 X126.144 Y116.546 E177.70849
G1 X126.144 Y115.618 E177.73434
G1 X115.618 Y126.144 E178.14892
G1 X114.690 Y126.144 E178.17477
G1 X126.144 Y114.690 E178.62591
G1 X126.144 Y113.762 E178.65176
G1 X113.762 Y126.144 E179.13945
G1 X112.834 Y126.144 E179.16529
G1 X126.144 Y112.834 E179.68954
G1 X126.144 Y111.906 E179.71538
G1 X111.906 Y126.144 E180.27618
G1 X110.978 Y126.144 E180.30202
G1 X126.144 Y110.978 E180.89937
G1 X126.144 Y110.049 E180.92522
G1 X110.049 Y126.144 E181.55912
G1 X109.121 Y126.144 E181.58496
G1 X126.144 Y109.121 E182.25542
G1 X126.144 Y108.193 E182.28126
G1 X108.193 Y126.144 E182.98827
G1 X107.265 Y126.144 E183.01411
G1 X126.144 Y107.265 E183.75767
G1 X126.144 Y106.337 E183.78352
G1 X106.337 Y126.144 E184.56363
G1 X105.409 Y126.144 E184.58947
G1 X126.144 Y105.409 E185.40613
G1 X126.144 Y104.481 E185.43198
G1 X104.481 Y126.144 E186.28519
G1 X103.553 Y126.144 E186.31104
G1 X126.144 Y103.553 E187.20080
G1 X126.144 Y102.625 E187.22665
G1 X102.625 Y126.144 E188.15297
G1 X101.697 Y126.144 E188.17881
G1 X126.144 Y101.697 E189.14168
G1 X126.144 Y100.769 E189.16753
G1 X100.769 Y126.144 E190.16695
G1 X99.841 Y126.144 E190.19280
G1 X126.144 Y99.841 E191.22877
G1 X126.144 Y98.913 E191.25462
G1 X98.913 Y126.144 E192.32714
G1 X97.985 Y126.144 E192.35299
G1 X126.144 Y97.985 E193.46207
G1 X126.144 Y97.057 E193.48792
G1 X97.057 Y126.144 E194.63355
G1 X96.129 Y126.144 E194.65939
G1 X126.144 Y96.129 E195.84158
G1 X126.144 Y95.201 E195.86742
G1 X95.201 Y126.144 E197.08616
G1 X94.273 Y126.144 E197.11200
G1 X126.144 Y94.273 E198.36729
G1 X126.144 Y93.345 E198.39314
G1 X93.345 Y126.144 E199.68498
G1 X92.417 Y126.144 E199.71082
G1 X126.144 Y92.417 E201.03921
G1 X126.144 Y91.489 E201.06506
G1 X91.489 Y126.144 E202.43000
G1 X90.561 Y126.144 E202.45585
G1 X126.144 Y90.561 E203.85735
G1 X126.144 Y89.633 E203.88319
G1 X89.633 Y126.144 E205.32124
G1 X88.705 Y126.144 E205.34709
G1 X126.144 Y88.705 E206.82169
G1 X126.144 Y87.777 E206.84753
G1 X87.777 Y126.144 E208.35869
G1 X86.849 Y126.144 E208.38453
G1 X126.144 Y86.849 E209.93224
G1 X126.144 Y85.921 E209.95808
G1 X85.921 Y126.144 E211.54234
G1 X84.993 Y126.144 E211.56819
G1 X126.144 Y84.993 E213.18900
G1 X126.144 Y84.065 E213.21484
G1 X84.065 Y126.144 E214.87220
G1 X83.137 Y126.144 E214.89805
G1 X126.144 Y83.137 E216.59196
G1 X126.144 Y82.209 E216.61781
G1 X82.209 Y126.144 E218.34828
G1 X81.281 Y126.144 E218.37412
G1 X126.144 Y81.281 E220.14114
G1 X126.144 Y80.353 E220.16699
G1 X80.352 Y126.144 E221.97056
G1 X79.424 Y126.144 E221.99640
G1 X126.144 Y79.424 E223.83653
G1 X126.144 Y78.496 E223.86237
G1 X78.496 Y126.144 E225.73905
G1 X77.568 Y126.144 E225.76489
G1 X126.144 Y77.568 E227.67812
G1 X126.144 Y76.640 E227.70397
G1 X76.640 Y126.144 E229.65375
G1 X75.712 Y126.144 E229.67959
G1 X126.144 Y75.712 E231.66592
G1 X126.144 Y74.784 E231.69177
G1 X74.784 Y126.144 E233.71465
G1 X73.876 Y126.124 E233.73995
G1 X126.124 Y73.876 E235.79781
G1 X125.216 Y73.856 E235.82310
G1 X73.856 Y125.216 E237.84598
G1 X73.856 Y124.288 E237.87183
G1 X124.288 Y73.856 E239.85816
G1 X123.360 Y73.856 E239.88400
G1 X73.856 Y123.360 E241.83378
G1 X73.856 Y122.432 E241.85962
G1 X122.432 Y73.856 E243.77285
G1 X121.503 Y73.856 E243.79869
G1 X73.856 Y121.503 E245.67536
G1 X73.856 Y120.575 E245.70121
G1 X120.575 Y73.856 E247.54133
G1 X119.647 Y73.856 E247.56718
G1 X73.856 Y119.647 E249.37074
G1 X73.856 Y118.719 E249.39659
G1 X118.719 Y73.856 E251.16360
G1 X117.791 Y73.856 E251.18945
G1 X73.856 Y117.791 E252.91991
G1 X73.856 Y116.863 E252.94576
G1 X116.863 Y73.856 E254.63967
G1 X115.935 Y73.856 E254.66551
G1 X73.856 Y115.935 E256.32287
G1 X73.856 Y115.007 E256.34872
G1 X115.007 Y73.856 E257.96952
G1 X114.079 Y73.856 E257.99537
G1 X73.856 Y114.079 E259.57962
G1 X73.856 Y113.151 E259.60547
G1 X113.151 Y73.856 E261.15317
G1 X112.223 Y73.856 E261.17902
G1 X73.856 Y112.223 E262.69017
G1 X73.856 Y111.295 E262.71601
G1 X111.295 Y73.856 E264.19061
G1 X110.367 Y73.856 E264.21646
G1 X73.856 Y110.367 E265.65450
G1 X73.856 Y109.439 E265.68035
G1 X109.439 Y73.856 E267.08184
G1 X108.511 Y73.856 E267.10769
G1 X73.856 Y108.511 E268.47263
G1 X73.856 Y107.583 E268.49847
G1 X107.583 Y73.856 E269.82686
G1 X106.655 Y73.856 E269.85271
G1 X73.856 Y106.655 E271.14454
G1 X73.856 Y105.727 E271.17039
G1 X105.727 Y73.856 E272.42567
G1 X104.799 Y73.856 E272.45152
G1 X73.856 Y104.799 E273.67025
G1 X73.856 Y103.871 E273.69610
G1 X103.871 Y73.856 E274.87828
G1 X102.943 Y73.856 E274.90412
G1 X73.856 Y102.943 E276.04975
G1 X73.856 Y102.015 E276.07560
G1 X102.015 Y73.856 E277.18467
G1 X101.087 Y73.856 E277.21052
G1 X73.856 Y101.087 E278.28304
G1 X73.856 Y100.159 E278.30889
G1 X100.159 Y73.856 E279.34486
G1 X99.231 Y73.856 E279.37070
G1 X73.856 Y99.231 E280.37012
G1 X73.856 Y98.303 E280.39597
G1 X98.303 Y73.856 E281.35883
G1 X97.375 Y73.856 E281.38468
G1 X73.856 Y97.375 E282.31100
G1 X73.856 Y96.447 E282.33684
G1 X96.447 Y73.856 E283.22660
G1 X95.519 Y73.856 E283.25245
G1 X73.856 Y95.519 E284.10566
G1 X73.856 Y94.591 E284.13151
G1 X94.591 Y73.856 E284.94816
G1 X93.663 Y73.856 E284.97401
G1 X73.856 Y93.663 E285.75412
G1 X73.856 Y92.735 E285.77996
G1 X92.735 Y73.856 E286.52351
G1 X91.807 Y73.856 E286.54936
G1 X73.856 Y91.807 E287.25636
G1 X73.856 Y90.878 E287.28221
G1 X90.878 Y73.856 E287.95266
G1 X89.950 Y73.856 E287.97850
G1 X73.856 Y89.950 E288.61240
G1 X73.856 Y89.022 E288.63825
G1 X89.022 Y73.856 E289.23559
G1 X88.094 Y73.856 E289.26144
G1 X73.856 Y88.094 E289.82223
G1 X73.856 Y87.166 E289.84808
G1 X87.166 Y73.856 E290.37232
G1 X86.238 Y73.856 E290.39816
G1 X73.856 Y86.238 E290.88585
G1 X73.856 Y85.310 E290.91170
G1 X85.310 Y73.856 E291.36283
G1 X84.382 Y73.856 E291.38868
G1 X73.856 Y84.382 E291.80326
