; generated by Slic3r 1.2.9 on 2019-03-28 at 19:36:30

; external perimeters extrusion width = 0.50mm
; perimeters extrusion width = 0.72mm
; infill extrusion width = 0.72mm
; solid infill extrusion width = 0.72mm
; top infill extrusion width = 0.72mm

M107
M104 S200 ; set temperature
G28 ; home all axes
G1 Z5 F5000 ; lift nozzle

M109 S200 ; wait for temperature to be reached
G21 ; set units to millimeters
G90 ; use absolute coordinates
M82 ; use absolute distances for extrusion
G92 E0
G1 Z0.350 F7800.000
G1 E-2.00000 F2400.00000
G92 E0
G1 X66.925 Y67.762 F7800.000
G1 E2.00000 F2400.00000
G1 X68.677 Y66.283 E2.07096 F1800.000
G1 X70.830 Y65.490 E2.14192
G1 X72.009 Y65.384 E2.17858
G1 X127.991 Y65.384 E3.91071
G1 X130.250 Y65.781 E3.98168
G1 X132.238 Y66.925 E4.05264 F1800.000
G1 X133.717 Y68.677 E4.12360
G1 X134.510 Y70.830 E4.19456
G1 X134.616 Y72.009 E4.23121
G1 X134.616 Y127.991 E5.96335
G1 X134.219 Y130.250 E6.03431
G1 X133.075 Y132.238 E6.10528
G1 X131.323 Y133.717 E6.17624
G1 X129.170 Y134.510 E6.24720
G1 X127.991 Y134.616 E6.28385
G1 X72.009 Y134.616 E8.01599
G1 X69.750 Y134.219 E8.08695
G1 X67.762 Y133.075 E8.15791
G1 X66.283 Y131.323 E8.22888
G1 X65.490 Y129.171 E8.29984
G1 X65.384 Y127.991 E8.33649
G1 X65.384 Y72.009 E10.06863
G1 X65.781 Y69.750 E10.13959
G1 X66.887 Y67.827 E10.20823
G1 E8.20823 F2400.00000
G92 E0
G1 X126.391 Y126.391 F7800.000
G1 E2.00000 F2400.00000
G1 X73.609 Y126.391 E3.63314 F1800.000
G1 X73.609 Y73.609 E5.26628
G1 X126.391 Y73.609 E6.89942
G1 X126.391 Y126.316 E8.53024
G1 X127.016 Y127.016 F7800.000
G1 X72.984 Y127.016 E10.20205 F1800.000
G1 X72.984 Y72.984 E11.87386
G1 X127.016 Y72.984 E13.54567
G1 X127.016 Y126.941 E15.21515
G1 X127.641 Y127.641 F7800.000
G1 X72.359 Y127.641 E16.92563 F1800.000
G1 X72.359 Y72.359 E18.63611
G1 X127.641 Y72.359 E20.34659
G1 X127.641 Y127.566 E22.05475
G1 X127.208 Y127.391 F7800.000
G1 X126.042 Y74.245 F7800.000
G1 X125.663 Y74.026 E22.06831 F1800.000
G1 X126.042 Y74.967 E22.09972
G1 X124.412 Y74.026 E22.15798
G1 X123.162 Y74.026 E22.19669
G1 X126.042 Y75.689 E22.29965
G1 X126.042 Y76.411 E22.32200
G1 X121.911 Y74.026 E22.46966
G1 X120.661 Y74.026 E22.50837
G1 X126.042 Y77.133 E22.70073
G1 X126.042 Y77.855 E22.72308
G1 X119.411 Y74.026 E22.96014
G1 X118.160 Y74.026 E22.99885
G1 X126.042 Y78.577 E23.28061
G1 X126.042 Y79.299 E23.30296
G1 X116.910 Y74.026 E23.62942
G1 X115.659 Y74.026 E23.66813
G1 X126.042 Y80.021 E24.03929
G1 X126.042 Y80.743 E24.06164
G1 X114.409 Y74.026 E24.47750
G1 X113.158 Y74.026 E24.51621
G1 X126.042 Y81.465 E24.97677
G1 X126.042 Y82.187 E24.99912
G1 X111.908 Y74.026 E25.50438
G1 X110.657 Y74.026 E25.54309
G1 X126.042 Y82.909 E26.09305
G1 X126.042 Y83.631 E26.11540
G1 X109.407 Y74.026 E26.71006
G1 X108.157 Y74.026 E26.74877
G1 X126.042 Y84.353 E27.38813
G1 X126.042 Y85.075 E27.41048
G1 X106.906 Y74.026 E28.09453
G1 X105.656 Y74.026 E28.13324
G1 X126.042 Y85.797 E28.86200
G1 X126.042 Y86.519 E28.88435
G1 X104.405 Y74.026 E29.65781
G1 X103.155 Y74.026 E29.69652
G1 X126.042 Y87.241 E30.51468
G1 X126.042 Y87.962 E30.53703
G1 X101.904 Y74.026 E31.39989
G1 X100.654 Y74.026 E31.43860
G1 X126.042 Y88.684 E32.34615
G1 X126.042 Y89.406 E32.36850
G1 X99.403 Y74.026 E33.32076
G1 X98.153 Y74.026 E33.35947
G1 X126.042 Y90.128 E34.35643
G1 X126.042 Y90.850 E34.37878
G1 X96.902 Y74.026 E35.42044
G1 X95.652 Y74.026 E35.45915
G1 X126.042 Y91.572 E36.54550
G1 X126.042 Y92.294 E36.56785
G1 X94.402 Y74.026 E37.69891
G1 X93.151 Y74.026 E37.73762
G1 X126.042 Y93.016 E38.91338
G1 X126.042 Y93.738 E38.93573
G1 X91.901 Y74.026 E40.15618
G1 X90.650 Y74.026 E40.19489
G1 X126.042 Y94.460 E41.46005
G1 X126.042 Y95.182 E41.48240
G1 X89.400 Y74.026 E42.79226
G1 X88.149 Y74.026 E42.83097
G1 X126.042 Y95.904 E44.18552
G1 X126.042 Y96.626 E44.20787
G1 X86.899 Y74.026 E45.60713
G1 X85.648 Y74.026 E45.64584
G1 X126.042 Y97.348 E47.08979
G1 X126.042 Y98.070 E47.11214
G1 X84.398 Y74.026 E48.60080
G1 X83.148 Y74.026 E48.63951
G1 X126.042 Y98.792 E50.17287
G1 X126.042 Y99.514 E50.19522
G1 X81.897 Y74.026 E51.77327
G1 X80.647 Y74.026 E51.81198
G1 X126.042 Y100.236 E53.43474
G1 X126.042 Y100.958 E53.45709
G1 X79.396 Y74.026 E55.12454
G1 X78.146 Y74.026 E55.16325
G1 X126.042 Y101.679 E56.87541
G1 X126.042 Y102.401 E56.89776
G1 X76.895 Y74.026 E58.65461
G1 X75.645 Y74.026 E58.69332
G1 X126.042 Y103.123 E60.49488
G1 X126.042 Y103.845 E60.51723
G1 X74.394 Y74.026 E62.36348
G1 X73.958 Y74.496 E62.38334
G1 X126.042 Y104.567 E64.24520
G1 X126.042 Y105.289 E64.26755
G1 X73.958 Y75.218 E66.12941
G1 X73.958 Y75.940 E66.15176
G1 X126.042 Y106.011 E68.01362
G1 X126.042 Y106.733 E68.03597
G1 X73.958 Y76.662 E69.89783
G1 X73.958 Y77.384 E69.92018
G1 X126.042 Y107.455 E71.78204
G1 X126.042 Y108.177 E71.80439
G1 X73.958 Y78.106 E73.66625
G1 X73.958 Y78.828 E73.68860
G1 X126.042 Y108.899 E75.55046
G1 X126.042 Y109.621 E75.57281
G1 X73.958 Y79.550 E77.43467
G1 X73.958 Y80.272 E77.45702
G1 X126.042 Y110.343 E79.31888
G1 X126.042 Y111.065 E79.34123
G1 X73.958 Y80.994 E81.20309
G1 X73.958 Y81.716 E81.22544
G1 X126.042 Y111.787 E83.08730
G1 X126.042 Y112.509 E83.10965
G1 X73.958 Y82.438 E84.97151
G1 X73.958 Y83.160 E84.99386
G1 X126.042 Y113.231 E86.85572
G1 X126.042 Y113.953 E86.87807
G1 X73.958 Y83.882 E88.73993
G1 X73.958 Y84.604 E88.76228
G1 X126.042 Y114.674 E90.62414
G1 X126.042 Y115.396 E90.64649
G1 X73.958 Y85.326 E92.50835
G1 X73.958 Y86.048 E92.53070
G1 X126.042 Y116.118 E94.39256
G1 X126.042 Y116.840 E94.41491
G1 X73.958 Y86.769 E96.27677
G1 X73.958 Y87.491 E96.29912
G1 X126.042 Y117.562 E98.16098
G1 X126.042 Y118.284 E98.18333
G1 X73.958 Y88.213 E100.04519
G1 X73.958 Y88.935 E100.06754
G1 X126.042 Y119.006 E101.92940
G1 X126.042 Y119.728 E101.95175
G1 X73.958 Y89.657 E103.81361
G1 X73.958 Y90.379 E103.83596
G1 X126.042 Y120.450 E105.69782
G1 X126.042 Y121.172 E105.72017
G1 X73.958 Y91.101 E107.58203
G1 X73.958 Y91.823 E107.60438
G1 X126.042 Y121.894 E109.46624
G1 X126.042 Y122.616 E109.48859
G1 X73.958 Y92.545 E111.35045
G1 X73.958 Y93.267 E111.37280
G1 X126.042 Y123.338 E113.23466
G1 X126.042 Y124.060 E113.25701
G1 X73.958 Y93.989 E115.11887
G1 X73.958 Y94.711 E115.14122
G1 X126.042 Y124.782 E117.00308
G1 X126.042 Y125.504 E117.02543
G1 X73.958 Y95.433 E118.88729
G1 X73.958 Y96.155 E118.90964
G1 X125.605 Y125.974 E120.75590
G1 X124.355 Y125.974 E120.79461
G1 X73.958 Y96.877 E122.59616
G1 X73.958 Y97.599 E122.61851
G1 X123.105 Y125.974 E124.37536
G1 X121.854 Y125.974 E124.41407
G1 X73.958 Y98.321 E126.12622
G1 X73.958 Y99.043 E126.14857
G1 X120.604 Y125.974 E127.81602
G1 X119.353 Y125.974 E127.85473
G1 X73.958 Y99.764 E129.47748
G1 X73.958 Y100.486 E129.49983
G1 X118.103 Y125.974 E131.07789
G1 X116.852 Y125.974 E131.11660
G1 X73.958 Y101.208 E132.64995
G1 X73.958 Y101.930 E132.67230
G1 X115.602 Y125.974 E134.16095
G1 X114.351 Y125.974 E134.19966
G1 X73.958 Y102.652 E135.64361
G1 X73.958 Y103.374 E135.66596
G1 X113.101 Y125.974 E137.06522
G1 X111.851 Y125.974 E137.10393
G1 X73.958 Y104.096 E138.45848
G1 X73.958 Y104.818 E138.48083
G1 X110.600 Y125.974 E139.79068
G1 X109.350 Y125.974 E139.82939
G1 X73.958 Y105.540 E141.09454
G1 X73.958 Y106.262 E141.11689
G1 X108.099 Y125.974 E142.33735
G1 X106.849 Y125.974 E142.37606
G1 X73.958 Y106.984 E143.55181
G1 X73.958 Y107.706 E143.57416
G1 X105.598 Y125.974 E144.70522
G1 X104.348 Y125.974 E144.74393
G1 X73.958 Y108.428 E145.83028
G1 X73.958 Y109.150 E145.85263
G1 X103.097 Y125.974 E146.89428
G1 X101.847 Y125.974 E146.93299
G1 X73.958 Y109.872 E147.92995
G1 X73.958 Y110.594 E147.95230
G1 X100.597 Y125.974 E148.90455
G1 X99.346 Y125.974 E148.94326
G1 X73.958 Y111.316 E149.85082
G1 X73.958 Y112.038 E149.87317
G1 X98.096 Y125.974 E150.73602
G1 X96.845 Y125.974 E150.77473
G1 X73.958 Y112.760 E151.59289
G1 X73.958 Y113.481 E151.61524
G1 X95.595 Y125.974 E152.38869
G1 X94.344 Y125.974 E152.42740
G1 X73.958 Y114.203 E153.15616
G1 X73.958 Y114.925 E153.17851
G1 X93.094 Y125.974 E153.86256
G1 X91.843 Y125.974 E153.90127
G1 X73.958 Y115.647 E154.54063
G1 X73.958 Y116.369 E154.56298
G1 X90.593 Y125.974 E155.15763
G1 X89.342 Y125.974 E155.19634
G1 X73.958 Y117.091 E155.74630
G1 X73.958 Y117.813 E155.76865
G1 X88.092 Y125.974 E156.27390
G1 X86.842 Y125.974 E156.31262
G1 X73.958 Y118.535 E156.77317
G1 X73.958 Y119.257 E156.79552
G1 X85.591 Y125.974 E157.21138
G1 X84.341 Y125.974 E157.25009
G1 X73.958 Y119.979 E157.62124
G1 X73.958 Y120.701 E157.64359
G1 X83.090 Y125.974 E157.97005
G1 X81.840 Y125.974 E158.00876
G1 X73.958 Y121.423 E158.29052
G1 X73.958 Y122.145 E158.31287
G1 X80.589 Y125.974 E158.54992
G1 X79.339 Y125.974 E158.58864
G1 X73.958 Y122.867 E158.78099
G1 X73.958 Y123.589 E158.80334
G1 X78.088 Y125.974 E158.95100
G1 X76.838 Y125.974 E158.98971
G1 X73.958 Y124.311 E159.09267
G1 X73.958 Y125.033 E159.11502
G1 X75.588 Y125.974 E159.17327
G1 X74.337 Y125.974 E159.21199
G1 X73.958 Y125.755 E159.22554
G1 Z0.650 F7800.000
G1 X126.541 Y126.541 F7800.000
G1 X73.459 Y126.541 E160.70005 F3600.000
G1 X73.459 Y73.459 E162.17456
G1 X126.541 Y73.459 E163.64907
G1 X126.541 Y126.466 E165.12149
G1 X127.196 Y127.196 F7800.000
G1 X72.804 Y127.196 E166.63236 F3600.000
G1 X72.804 Y72.804 E168.14323
G1 X127.196 Y72.804 E169.65410
G1 X127.196 Y127.121 E171.16288
G1 X127.741 Y127.741 F7800.000
G1 X72.259 Y127.741 E172.18864 F1800.000
G1 X72.259 Y72.259 E173.21439
G1 X127.741 Y72.259 E174.24015
G1 X127.741 Y127.666 E175.26452
G1 X127.308 Y127.491 F7800.000
G1 X125.875 Y126.175 F7800.000
G1 X126.103 Y125.780 E175.27723 F1200.000
G1 X125.116 Y126.175 E175.30688
G1 X126.103 Y124.465 E175.36195
G1 X126.103 Y123.151 E175.39863
G1 X124.357 Y126.175 E175.49604
G1 X123.598 Y126.175 E175.51722
G1 X126.103 Y121.836 E175.65699
G1 X126.103 Y120.521 E175.69366
G1 X122.839 Y126.175 E175.87578
G1 X122.080 Y126.175 E175.89696
G1 X126.103 Y119.207 E176.12143
G1 X126.103 Y117.892 E176.15810
G1 X121.321 Y126.175 E176.42492
G1 X120.562 Y126.175 E176.44610
G1 X126.103 Y116.577 E176.75527
G1 X126.103 Y115.263 E176.79194
G1 X119.803 Y126.175 E177.14346
G1 X119.044 Y126.175 E177.16464
G1 X126.103 Y113.948 E177.55851
G1 X126.103 Y112.633 E177.59519
G1 X118.285 Y126.175 E178.03141
G1 X117.526 Y126.175 E178.05258
G1 X126.103 Y111.319 E178.53115
G1 X126.103 Y110.004 E178.56783
G1 X116.767 Y126.175 E179.08875
G1 X116.008 Y126.175 E179.10993
G1 X126.103 Y108.690 E179.67320
G1 X126.103 Y107.375 E179.70988
G1 X115.249 Y126.175 E180.31550
G1 X114.490 Y126.175 E180.33668
G1 X126.103 Y106.060 E180.98465
G1 X126.103 Y104.746 E181.02133
G1 X113.731 Y126.175 E181.71165
G1 X112.972 Y126.175 E181.73283
G1 X126.103 Y103.431 E182.46550
G1 X126.103 Y102.116 E182.50218
G1 X112.213 Y126.175 E183.27720
G1 X111.454 Y126.175 E183.29838
G1 X126.103 Y100.802 E184.11575
G1 X126.103 Y99.487 E184.15243
G1 X110.695 Y126.175 E185.01216
G1 X109.936 Y126.175 E185.03333
G1 X126.103 Y98.172 E185.93541
G1 X126.103 Y96.858 E185.97209
G1 X109.177 Y126.175 E186.91651
G1 X108.418 Y126.175 E186.93769
G1 X126.103 Y95.543 E187.92447
G1 X126.103 Y94.228 E187.96114
G1 X107.659 Y126.175 E188.99027
G1 X106.900 Y126.175 E189.01145
G1 X126.103 Y92.914 E190.08293
G1 X126.103 Y91.599 E190.11960
G1 X106.141 Y126.175 E191.23343
G1 X105.381 Y126.175 E191.25461
G1 X126.103 Y90.284 E192.41079
G1 X126.103 Y88.970 E192.44747
G1 X104.622 Y126.175 E193.64600
G1 X103.863 Y126.175 E193.66717
G1 X126.103 Y87.655 E194.90805
G1 X126.103 Y86.340 E194.94473
G1 X103.104 Y126.175 E196.22796
G1 X102.345 Y126.175 E196.24914
G1 X126.103 Y85.026 E197.57472
G1 X126.103 Y83.711 E197.61140
G1 X101.586 Y126.175 E198.97933
G1 X100.827 Y126.175 E199.00051
G1 X126.103 Y82.396 E200.41079
G1 X126.103 Y81.082 E200.44747
G1 X100.068 Y126.175 E201.90010
G1 X99.309 Y126.175 E201.92128
G1 X126.103 Y79.767 E203.41626
G1 X126.103 Y78.452 E203.45294
G1 X98.550 Y126.175 E204.99027
G1 X97.791 Y126.175 E205.01145
G1 X126.103 Y77.138 E206.59113
G1 X126.103 Y75.823 E206.62781
G1 X97.032 Y126.175 E208.24985
G1 X96.273 Y126.175 E208.27102
G1 X126.103 Y74.508 E209.93541
G1 X125.738 Y73.825 E209.95701
G1 X95.514 Y126.175 E211.64340
G1 X94.755 Y126.175 E211.66458
G1 X124.979 Y73.825 E213.35097
G1 X124.220 Y73.825 E213.37214
G1 X93.996 Y126.175 E215.05853
G1 X93.237 Y126.175 E215.07971
G1 X123.461 Y73.825 E216.76610
G1 X122.702 Y73.825 E216.78728
G1 X92.478 Y126.175 E218.47367
G1 X91.719 Y126.175 E218.49484
G1 X121.943 Y73.825 E220.18123
G1 X121.184 Y73.825 E220.20241
G1 X90.960 Y126.175 E221.88880
G1 X90.201 Y126.175 E221.90998
G1 X120.425 Y73.825 E223.59637
G1 X119.666 Y73.825 E223.61754
G1 X89.442 Y126.175 E225.30393
G1 X88.683 Y126.175 E225.32511
G1 X118.907 Y73.825 E227.01150
G1 X118.148 Y73.825 E227.03268
G1 X87.924 Y126.175 E228.71907
G1 X87.165 Y126.175 E228.74024
G1 X117.389 Y73.825 E230.42663
G1 X116.630 Y73.825 E230.44781
G1 X86.406 Y126.175 E232.13420
G1 X85.647 Y126.175 E232.15538
G1 X115.871 Y73.825 E233.84177
G1 X115.112 Y73.825 E233.86294
G1 X84.888 Y126.175 E235.54933
G1 X84.129 Y126.175 E235.57051
G1 X114.353 Y73.825 E237.25690
G1 X113.594 Y73.825 E237.27808
G1 X83.370 Y126.175 E238.96447
G1 X82.611 Y126.175 E238.98564
G1 X112.835 Y73.825 E240.67203
G1 X112.076 Y73.825 E240.69321
G1 X81.852 Y126.175 E242.37960
G1 X81.093 Y126.175 E242.40078
G1 X111.317 Y73.825 E244.08717
G1 X110.558 Y73.825 E244.10834
G1 X80.334 Y126.175 E245.79473
G1 X79.575 Y126.175 E245.81591
G1 X109.799 Y73.825 E247.50230
G1 X109.040 Y73.825 E247.52348
G1 X78.816 Y126.175 E249.20987
G1 X78.057 Y126.175 E249.23104
G1 X108.281 Y73.825 E250.91743
G1 X107.522 Y73.825 E250.93861
G1 X77.298 Y126.175 E252.62500
G1 X76.539 Y126.175 E252.64618
G1 X106.763 Y73.825 E254.33257
G1 X106.004 Y73.825 E254.35374
G1 X75.780 Y126.175 E256.04013
G1 X75.021 Y126.175 E256.06131
G1 X105.245 Y73.825 E257.74770
G1 X104.486 Y73.825 E257.76888
G1 X74.262 Y126.175 E259.45527
G1 X73.897 Y125.492 E259.47687
G1 X103.727 Y73.825 E261.14125
G1 X102.968 Y73.825 E261.16243
G1 X73.897 Y124.177 E262.78446
G1 X73.897 Y122.862 E262.82114
G1 X102.209 Y73.825 E264.40082
G1 X101.450 Y73.825 E264.42200
G1 X73.897 Y121.548 E265.95933
G1 X73.897 Y120.233 E265.99600
G1 X100.691 Y73.825 E267.49098
G1 X99.932 Y73.825 E267.51216
G1 X73.897 Y118.918 E268.96479
G1 X73.897 Y117.604 E269.00147
G1 X99.173 Y73.825 E270.41174
G1 X98.414 Y73.825 E270.43292
G1 X73.897 Y116.289 E271.80085
G1 X73.897 Y114.974 E271.83753
G1 X97.655 Y73.825 E273.16310
G1 X96.895 Y73.825 E273.18428
G1 X73.897 Y113.660 E274.46751
G1 X73.897 Y112.345 E274.50418
G1 X96.136 Y73.825 E275.74506
G1 X95.377 Y73.825 E275.76624
G1 X73.897 Y111.030 E276.96476
G1 X73.897 Y109.716 E277.00144
G1 X94.618 Y73.825 E278.15762
G1 X93.859 Y73.825 E278.17879
G1 X73.897 Y108.401 E279.29262
G1 X73.897 Y107.086 E279.32929
G1 X93.100 Y73.825 E280.40077
G1 X92.341 Y73.825 E280.42195
G1 X73.897 Y105.772 E281.45107
G1 X73.897 Y104.457 E281.48775
G1 X91.582 Y73.825 E282.47452
G1 X90.823 Y73.825 E282.49570
G1 X73.897 Y103.142 E283.44012
G1 X73.897 Y101.828 E283.47680
G1 X90.064 Y73.825 E284.37887
G1 X89.305 Y73.825 E284.40005
G1 X73.897 Y100.513 E285.25977
G1 X73.897 Y99.198 E285.29644
G1 X88.546 Y73.825 E286.11382
G1 X87.787 Y73.825 E286.13499
G1 X73.897 Y97.884 E286.91001
G1 X73.897 Y96.569 E286.94669
G1 X87.028 Y73.825 E287.67936
G1 X86.269 Y73.825 E287.70054
G1 X73.897 Y95.254 E288.39086
G1 X73.897 Y93.940 E288.42753
G1 X85.510 Y73.825 E289.07551
G1 X84.751 Y73.825 E289.09668
G1 X73.897 Y92.625 E289.70230
G1 X73.897 Y91.310 E289.73898
G1 X83.992 Y73.825 E290.30225
G1 X83.233 Y73.825 E290.32342
G1 X73.897 Y89.996 E290.84434
G1 X73.897 Y88.681 E290.88102
G1 X82.474 Y73.825 E291.35958
G1 X81.715 Y73.825 E291.38076
G1 X73.897 Y87.366 E291.81698
G1 X73.897 Y86.052 E291.85365
G1 X80.956 Y73.825 E292.24752
G1 X80.197 Y73.825 E292.26870
G1 X73.897 Y84.737 E292.62021
G1 X73.897 Y83.422 E292.65689
G1 X79.438 Y73.825 E292.96606
G1 X78.679 Y73.825 E292.98723
G1 X73.897 Y82.108 E293.25405
G1 X73.897 Y80.793 E293.29072
G1 X77.920 Y73.825 E293.51519
G1 X77.161 Y73.825 E293.53636
G1 X73.897 Y79.478 E293.71848
G1 X73.897 Y78.164 E293.75516
G1 X76.402 Y73.825 E293.89492
G1 X75.643 Y73.825 E293.91609
