; generated by Slic3r 1.2.9 on 2019-04-06 at 12:08:44

; external perimeters extrusion width = 0.50mm
; perimeters extrusion width = 0.85mm
; infill extrusion width = 9.82mm
; solid infill extrusion width = 0.85mm
; top infill extrusion width = 0.85mm

M107
M104 S200 ; set temperature
G28 ; home all axes
G1 Z5 F5000 ; lift nozzle

M109 S200 ; wait for temperature to be reached
G21 ; set units to millimeters
G90 ; use absolute coordinates
M82 ; use absolute distances for extrusion
G92 E0
G1 Z0.350 F7800.000
G1 E-2.00000 F2400.00000
G92 E0
G1 X66.925 Y67.762 F7800.000
G1 E2.00000 F2400.00000
G1 X68.677 Y66.283 E2.07096 F1800.000
G1 X70.830 Y65.490 E2.14192
G1 X72.009 Y65.384 E2.17858
G1 X127.991 Y65.384 E3.91071
G1 X130.250 Y65.781 E3.98168
G1 X132.238 Y66.925 E4.05264 F1800.000
G1 X133.717 Y68.677 E4.12360
G1 X134.510 Y70.830 E4.19456
G1 X134.616 Y72.009 E4.23121
G1 X134.616 Y127.991 E5.96335
G1 X134.219 Y130.250 E6.03431
G1 X133.075 Y132.238 E6.10528
G1 X131.323 Y133.717 E6.17624
G1 X129.170 Y134.510 E6.24720
G1 X127.991 Y134.616 E6.28385
G1 X72.009 Y134.616 E8.01599
G1 X69.750 Y134.219 E8.08695
G1 X67.762 Y133.075 E8.15791
G1 X66.283 Y131.323 E8.22888
G1 X65.490 Y129.171 E8.29984
G1 X65.384 Y127.991 E8.33649
G1 X65.384 Y72.009 E10.06863
G1 X65.781 Y69.750 E10.13959
G1 X66.887 Y67.827 E10.20823
G1 E8.20823 F2400.00000
G92 E0
G1 X126.391 Y126.391 F7800.000
G1 E2.00000 F2400.00000
G1 X73.609 Y126.391 E3.63314 F1800.000
G1 X73.609 Y73.609 E5.26628
G1 X126.391 Y73.609 E6.89942
G1 X126.391 Y126.316 E8.53024
G1 X127.016 Y127.016 F7800.000
G1 X72.984 Y127.016 E10.20205 F1800.000
G1 X72.984 Y72.984 E11.87386
G1 X127.016 Y72.984 E13.54567
G1 X127.016 Y126.941 E15.21515
G1 X127.641 Y127.641 F7800.000
G1 X72.359 Y127.641 E16.92563 F1800.000
G1 X72.359 Y72.359 E18.63611
G1 X127.641 Y72.359 E20.34659
G1 X127.641 Y127.566 E22.05475
G1 X127.208 Y127.391 F7800.000
G1 X126.042 Y74.245 F7800.000
G1 X125.663 Y74.026 E22.06831 F1800.000
G1 X126.042 Y74.967 E22.09972
G1 X124.412 Y74.026 E22.15798
G1 X123.162 Y74.026 E22.19669
G1 X126.042 Y75.689 E22.29965
G1 X126.042 Y76.411 E22.32200
G1 X121.911 Y74.026 E22.46966
G1 X120.661 Y74.026 E22.50837
G1 X126.042 Y77.133 E22.70073
G1 X126.042 Y77.855 E22.72308
G1 X119.411 Y74.026 E22.96014
G1 X118.160 Y74.026 E22.99885
G1 X126.042 Y78.577 E23.28061
G1 X126.042 Y79.299 E23.30296
G1 X116.910 Y74.026 E23.62942
G1 X115.659 Y74.026 E23.66813
G1 X126.042 Y80.021 E24.03929
G1 X126.042 Y80.743 E24.06164
G1 X114.409 Y74.026 E24.47750
G1 X113.158 Y74.026 E24.51621
G1 X126.042 Y81.465 E24.97677
G1 X126.042 Y82.187 E24.99912
G1 X111.908 Y74.026 E25.50438
G1 X110.657 Y74.026 E25.54309
G1 X126.042 Y82.909 E26.09305
G1 X126.042 Y83.631 E26.11540
G1 X109.407 Y74.026 E26.71006
G1 X108.157 Y74.026 E26.74877
G1 X126.042 Y84.353 E27.38813
G1 X126.042 Y85.075 E27.41048
G1 X106.906 Y74.026 E28.09453
G1 X105.656 Y74.026 E28.13324
G1 X126.042 Y85.797 E28.86200
G1 X126.042 Y86.519 E28.88435
G1 X104.405 Y74.026 E29.65781
G1 X103.155 Y74.026 E29.69652
G1 X126.042 Y87.241 E30.51468
G1 X126.042 Y87.962 E30.53703
G1 X101.904 Y74.026 E31.39989
G1 X100.654 Y74.026 E31.43860
G1 X126.042 Y88.684 E32.34615
G1 X126.042 Y89.406 E32.36850
G1 X99.403 Y74.026 E33.32076
G1 X98.153 Y74.026 E33.35947
G1 X126.042 Y90.128 E34.35643
G1 X126.042 Y90.850 E34.37878
G1 X96.902 Y74.026 E35.42044
G1 X95.652 Y74.026 E35.45915
G1 X126.042 Y91.572 E36.54550
G1 X126.042 Y92.294 E36.56785
G1 X94.402 Y74.026 E37.69891
G1 X93.151 Y74.026 E37.73762
G1 X126.042 Y93.016 E38.91338
G1 X126.042 Y93.738 E38.93573
G1 X91.901 Y74.026 E40.15618
G1 X90.650 Y74.026 E40.19489
G1 X126.042 Y94.460 E41.46005
G1 X126.042 Y95.182 E41.48240
G1 X89.400 Y74.026 E42.79226
G1 X88.149 Y74.026 E42.83097
G1 X126.042 Y95.904 E44.18552
G1 X126.042 Y96.626 E44.20787
G1 X86.899 Y74.026 E45.60713
G1 X85.648 Y74.026 E45.64584
G1 X126.042 Y97.348 E47.08979
G1 X126.042 Y98.070 E47.11214
G1 X84.398 Y74.026 E48.60080
G1 X83.148 Y74.026 E48.63951
G1 X126.042 Y98.792 E50.17287
G1 X126.042 Y99.514 E50.19522
G1 X81.897 Y74.026 E51.77327
G1 X80.647 Y74.026 E51.81198
G1 X126.042 Y100.236 E53.43474
G1 X126.042 Y100.958 E53.45709
G1 X79.396 Y74.026 E55.12454
G1 X78.146 Y74.026 E55.16325
G1 X126.042 Y101.679 E56.87541
G1 X126.042 Y102.401 E56.89776
G1 X76.895 Y74.026 E58.65461
G1 X75.645 Y74.026 E58.69332
G1 X126.042 Y103.123 E60.49488
G1 X126.042 Y103.845 E60.51723
G1 X74.394 Y74.026 E62.36348
G1 X73.958 Y74.496 E62.38334
G1 X126.042 Y104.567 E64.24520
G1 X126.042 Y105.289 E64.26755
G1 X73.958 Y75.218 E66.12941
G1 X73.958 Y75.940 E66.15176
G1 X126.042 Y106.011 E68.01362
G1 X126.042 Y106.733 E68.03597
G1 X73.958 Y76.662 E69.89783
G1 X73.958 Y77.384 E69.92018
G1 X126.042 Y107.455 E71.78204
G1 X126.042 Y108.177 E71.80439
G1 X73.958 Y78.106 E73.66625
G1 X73.958 Y78.828 E73.68860
G1 X126.042 Y108.899 E75.55046
G1 X126.042 Y109.621 E75.57281
G1 X73.958 Y79.550 E77.43467
G1 X73.958 Y80.272 E77.45702
G1 X126.042 Y110.343 E79.31888
G1 X126.042 Y111.065 E79.34123
G1 X73.958 Y80.994 E81.20309
G1 X73.958 Y81.716 E81.22544
G1 X126.042 Y111.787 E83.08730
G1 X126.042 Y112.509 E83.10965
G1 X73.958 Y82.438 E84.97151
G1 X73.958 Y83.160 E84.99386
G1 X126.042 Y113.231 E86.85572
G1 X126.042 Y113.953 E86.87807
G1 X73.958 Y83.882 E88.73993
G1 X73.958 Y84.604 E88.76228
G1 X126.042 Y114.674 E90.62414
G1 X126.042 Y115.396 E90.64649
G1 X73.958 Y85.326 E92.50835
G1 X73.958 Y86.048 E92.53070
G1 X126.042 Y116.118 E94.39256
G1 X126.042 Y116.840 E94.41491
G1 X73.958 Y86.769 E96.27677
G1 X73.958 Y87.491 E96.29912
G1 X126.042 Y117.562 E98.16098
G1 X126.042 Y118.284 E98.18333
G1 X73.958 Y88.213 E100.04519
G1 X73.958 Y88.935 E100.06754
G1 X126.042 Y119.006 E101.92940
G1 X126.042 Y119.728 E101.95175
G1 X73.958 Y89.657 E103.81361
G1 X73.958 Y90.379 E103.83596
G1 X126.042 Y120.450 E105.69782
G1 X126.042 Y121.172 E105.72017
G1 X73.958 Y91.101 E107.58203
G1 X73.958 Y91.823 E107.60438
G1 X126.042 Y121.894 E109.46624
G1 X126.042 Y122.616 E109.48859
G1 X73.958 Y92.545 E111.35045
G1 X73.958 Y93.267 E111.37280
G1 X126.042 Y123.338 E113.23466
G1 X126.042 Y124.060 E113.25701
G1 X73.958 Y93.989 E115.11887
G1 X73.958 Y94.711 E115.14122
G1 X126.042 Y124.782 E117.00308
G1 X126.042 Y125.504 E117.02543
G1 X73.958 Y95.433 E118.88729
G1 X73.958 Y96.155 E118.90964
G1 X125.605 Y125.974 E120.75590
G1 X124.355 Y125.974 E120.79461
G1 X73.958 Y96.877 E122.59616
G1 X73.958 Y97.599 E122.61851
G1 X123.105 Y125.974 E124.37536
G1 X121.854 Y125.974 E124.41407
G1 X73.958 Y98.321 E126.12622
G1 X73.958 Y99.043 E126.14857
G1 X120.604 Y125.974 E127.81602
G1 X119.353 Y125.974 E127.85473
G1 X73.958 Y99.764 E129.47748
G1 X73.958 Y100.486 E129.49983
G1 X118.103 Y125.974 E131.07789
G1 X116.852 Y125.974 E131.11660
G1 X73.958 Y101.208 E132.64995
G1 X73.958 Y101.930 E132.67230
G1 X115.602 Y125.974 E134.16095
G1 X114.351 Y125.974 E134.19966
G1 X73.958 Y102.652 E135.64361
G1 X73.958 Y103.374 E135.66596
G1 X113.101 Y125.974 E137.06522
G1 X111.851 Y125.974 E137.10393
G1 X73.958 Y104.096 E138.45848
G1 X73.958 Y104.818 E138.48083
G1 X110.600 Y125.974 E139.79068
G1 X109.350 Y125.974 E139.82939
G1 X73.958 Y105.540 E141.09454
G1 X73.958 Y106.262 E141.11689
G1 X108.099 Y125.974 E142.33735
G1 X106.849 Y125.974 E142.37606
G1 X73.958 Y106.984 E143.55181
G1 X73.958 Y107.706 E143.57416
G1 X105.598 Y125.974 E144.70522
G1 X104.348 Y125.974 E144.74393
G1 X73.958 Y108.428 E145.83028
G1 X73.958 Y109.150 E145.85263
G1 X103.097 Y125.974 E146.89428
G1 X101.847 Y125.974 E146.93299
G1 X73.958 Y109.872 E147.92995
G1 X73.958 Y110.594 E147.95230
G1 X100.597 Y125.974 E148.90455
G1 X99.346 Y125.974 E148.94326
G1 X73.958 Y111.316 E149.85082
G1 X73.958 Y112.038 E149.87317
G1 X98.096 Y125.974 E150.73602
G1 X96.845 Y125.974 E150.77473
G1 X73.958 Y112.760 E151.59289
G1 X73.958 Y113.481 E151.61524
G1 X95.595 Y125.974 E152.38869
G1 X94.344 Y125.974 E152.42740
G1 X73.958 Y114.203 E153.15616
G1 X73.958 Y114.925 E153.17851
G1 X93.094 Y125.974 E153.86256
G1 X91.843 Y125.974 E153.90127
G1 X73.958 Y115.647 E154.54063
G1 X73.958 Y116.369 E154.56298
G1 X90.593 Y125.974 E155.15763
G1 X89.342 Y125.974 E155.19634
G1 X73.958 Y117.091 E155.74630
G1 X73.958 Y117.813 E155.76865
G1 X88.092 Y125.974 E156.27390
G1 X86.842 Y125.974 E156.31262
G1 X73.958 Y118.535 E156.77317
G1 X73.958 Y119.257 E156.79552
G1 X85.591 Y125.974 E157.21138
G1 X84.341 Y125.974 E157.25009
G1 X73.958 Y119.979 E157.62124
G1 X73.958 Y120.701 E157.64359
G1 X83.090 Y125.974 E157.97005
G1 X81.840 Y125.974 E158.00876
G1 X73.958 Y121.423 E158.29052
G1 X73.958 Y122.145 E158.31287
G1 X80.589 Y125.974 E158.54992
G1 X79.339 Y125.974 E158.58864
G1 X73.958 Y122.867 E158.78099
G1 X73.958 Y123.589 E158.80334
G1 X78.088 Y125.974 E158.95100
G1 X76.838 Y125.974 E158.98971
G1 X73.958 Y124.311 E159.09267
G1 X73.958 Y125.033 E159.11502
G1 X75.588 Y125.974 E159.17327
G1 X74.337 Y125.974 E159.21199
G1 X73.958 Y125.755 E159.22554
G1 Z0.370 F7800.000
G1 X126.224 Y126.224 F7800.000
G1 X73.776 Y126.224 E159.35105 F3600.000
G1 X73.776 Y73.776 E159.47655
G1 X126.224 Y73.776 E159.60205
G1 X126.224 Y126.149 E159.72737
G1 X127.070 Y127.070 F7800.000
G1 X72.930 Y127.070 E159.85692 F3600.000
G1 X72.930 Y72.930 E159.98647
G1 X127.070 Y72.930 E160.11602
G1 X127.070 Y126.995 E160.24539
G1 X127.741 Y127.741 F7800.000
G1 X72.259 Y127.741 E160.32321 F1800.000
G1 X72.259 Y72.259 E160.40102
G1 X127.741 Y72.259 E160.47884
G1 X127.741 Y127.666 E160.55655
G1 X127.308 Y127.491 F7800.000
G1 X121.020 Y121.020 F7800.000
G1 X85.296 Y121.020 E161.54888 F4800.000
G1 X121.020 Y100.394 E162.69472
G1 X121.020 Y121.020 E163.26764
G1 Z0.390 F7800.000
G1 X126.224 Y126.224 F7800.000
G1 X73.776 Y126.224 E163.39314 F3600.000
G1 X73.776 Y73.776 E163.51865
G1 X126.224 Y73.776 E163.64415
G1 X126.224 Y126.149 E163.76947
G1 X127.070 Y127.070 F7800.000
G1 X72.930 Y127.070 E163.89902 F3600.000
G1 X72.930 Y72.930 E164.02857
G1 X127.070 Y72.930 E164.15812
G1 X127.070 Y126.995 E164.28749
G1 X127.741 Y127.741 F7800.000
G1 X72.259 Y127.741 E164.36531 F1800.000
G1 X72.259 Y72.259 E164.44312
G1 X127.741 Y72.259 E164.52094
G1 X127.741 Y127.666 E164.59865
G1 X127.308 Y127.491 F7800.000
G1 X121.020 Y121.020 F7800.000
G1 X85.296 Y121.020 E165.59098 F4800.000
G1 X121.020 Y100.394 E166.73682
G1 X121.020 Y121.020 E167.30974
M106 S216.75
G1 Z0.410 F7800.000
G1 X126.224 Y126.224 F7800.000
G1 X73.776 Y126.224 E167.43524 F3600.000
G1 X73.776 Y73.776 E167.56074
G1 X126.224 Y73.776 E167.68625
G1 X126.224 Y126.149 E167.81157
G1 X127.070 Y127.070 F7800.000
G1 X72.930 Y127.070 E167.94112 F3600.000
G1 X72.930 Y72.930 E168.07067
G1 X127.070 Y72.930 E168.20022
G1 X127.070 Y126.995 E168.32959
G1 X127.741 Y127.741 F7800.000
G1 X72.259 Y127.741 E168.40740 F1800.000
G1 X72.259 Y72.259 E168.48522
G1 X127.741 Y72.259 E168.56304
G1 X127.741 Y127.666 E168.64075
G1 X127.308 Y127.491 F7800.000
G1 X121.020 Y121.020 F7800.000
G1 X121.020 Y106.063 E169.05622 F4800.000
G1 X95.113 Y121.020 E169.88717
G1 X121.020 Y121.020 E170.60679
G1 X121.020 Y94.726 F7800.000
G1 X121.020 Y78.980 E171.04417 F4800.000
G1 X78.980 Y78.980 E172.21192
G1 X78.980 Y118.998 E173.32351
G1 X121.020 Y94.726 E174.67192
M106 S221.85
G1 Z0.430 F7800.000
G1 X126.224 Y126.224 F7800.000
G1 X73.776 Y126.224 E174.79742 F3600.000
G1 X73.776 Y73.776 E174.92292
G1 X126.224 Y73.776 E175.04842
G1 X126.224 Y126.149 E175.17375
G1 X127.070 Y127.070 F7800.000
G1 X72.930 Y127.070 E175.30330 F3600.000
G1 X72.930 Y72.930 E175.43285
G1 X127.070 Y72.930 E175.56240
G1 X127.070 Y126.995 E175.69177
G1 X127.741 Y127.741 F7800.000
G1 X72.259 Y127.741 E175.76958 F1800.000
G1 X72.259 Y72.259 E175.84740
G1 X127.741 Y72.259 E175.92521
G1 X127.741 Y127.666 E176.00293
G1 X127.308 Y127.491 F7800.000
G1 X121.020 Y121.020 F7800.000
G1 X85.296 Y121.020 E176.99525 F4800.000
G1 X121.020 Y100.394 E178.14109
G1 X121.020 Y121.020 E178.71402
G1 Z0.450 F7800.000
G1 X126.224 Y126.224 F7800.000
G1 X73.776 Y126.224 E178.83952 F3600.000
G1 X73.776 Y73.776 E178.96502
G1 X126.224 Y73.776 E179.09052
G1 X126.224 Y126.149 E179.21584
G1 X127.070 Y127.070 F7800.000
G1 X72.930 Y127.070 E179.34539 F3600.000
G1 X72.930 Y72.930 E179.47494
G1 X127.070 Y72.930 E179.60449
G1 X127.070 Y126.995 E179.73386
G1 X127.741 Y127.741 F7800.000
G1 X72.259 Y127.741 E179.81168 F1800.000
G1 X72.259 Y72.259 E179.88950
G1 X127.741 Y72.259 E179.96731
G1 X127.741 Y127.666 E180.04502
G1 X127.308 Y127.491 F7800.000
G1 X121.020 Y121.020 F7800.000
G1 X85.296 Y121.020 E181.03735 F4800.000
G1 X121.020 Y100.394 E182.18319
G1 X121.020 Y121.020 E182.75611
M106 S216.75
G1 Z0.470 F7800.000
G1 X126.224 Y126.224 F7800.000
G1 X73.776 Y126.224 E182.88162 F3600.000
G1 X73.776 Y73.776 E183.00712
G1 X126.224 Y73.776 E183.13262
G1 X126.224 Y126.149 E183.25794
G1 X127.070 Y127.070 F7800.000
G1 X72.930 Y127.070 E183.38749 F3600.000
G1 X72.930 Y72.930 E183.51704
G1 X127.070 Y72.930 E183.64659
G1 X127.070 Y126.995 E183.77596
G1 X127.741 Y127.741 F7800.000
G1 X72.259 Y127.741 E183.85378 F1800.000
G1 X72.259 Y72.259 E183.93159
G1 X127.741 Y72.259 E184.00941
G1 X127.741 Y127.666 E184.08712
G1 X127.308 Y127.491 F7800.000
G1 X121.020 Y121.020 F7800.000
G1 X121.020 Y106.063 E184.50259 F4800.000
G1 X95.113 Y121.020 E185.33354
G1 X121.020 Y121.020 E186.05316
G1 X121.020 Y94.726 F7800.000
G1 X121.020 Y78.980 E186.49055 F4800.000
G1 X78.980 Y78.980 E187.65830
G1 X78.980 Y118.998 E188.76989
G1 X121.020 Y94.726 E190.11829
M106 S221.85
G1 Z0.490 F7800.000
G1 X126.224 Y126.224 F7800.000
G1 X73.776 Y126.224 E190.24379 F3600.000
G1 X73.776 Y73.776 E190.36930
G1 X126.224 Y73.776 E190.49480
G1 X126.224 Y126.149 E190.62012
G1 X127.070 Y127.070 F7800.000
G1 X72.930 Y127.070 E190.74967 F3600.000
G1 X72.930 Y72.930 E190.87922
G1 X127.070 Y72.930 E191.00877
G1 X127.070 Y126.995 E191.13814
G1 X127.741 Y127.741 F7800.000
G1 X72.259 Y127.741 E191.21596 F1800.000
G1 X72.259 Y72.259 E191.29377
G1 X127.741 Y72.259 E191.37159
G1 X127.741 Y127.666 E191.44930
G1 X127.308 Y127.491 F7800.000
G1 X121.020 Y121.020 F7800.000
G1 X85.296 Y121.020 E192.44163 F4800.000
G1 X121.020 Y100.394 E193.58747
G1 X121.020 Y121.020 E194.16039
G1 Z0.510 F7800.000
G1 X126.224 Y126.224 F7800.000
G1 X73.776 Y126.224 E194.28589 F3600.000
G1 X73.776 Y73.776 E194.41139
G1 X126.224 Y73.776 E194.53690
G1 X126.224 Y126.149 E194.66222
G1 X127.070 Y127.070 F7800.000
G1 X72.930 Y127.070 E194.79177 F3600.000
G1 X72.930 Y72.930 E194.92132
G1 X127.070 Y72.930 E195.05087
G1 X127.070 Y126.995 E195.18024
G1 X127.741 Y127.741 F7800.000
G1 X72.259 Y127.741 E195.25805 F1800.000
G1 X72.259 Y72.259 E195.33587
G1 X127.741 Y72.259 E195.41369
G1 X127.741 Y127.666 E195.49140
G1 X127.308 Y127.491 F7800.000
G1 X121.020 Y121.020 F7800.000
G1 X85.296 Y121.020 E196.48373 F4800.000
G1 X121.020 Y100.394 E197.62957
G1 X121.020 Y121.020 E198.20249
M106 S216.75
G1 Z0.530 F7800.000
G1 X126.224 Y126.224 F7800.000
G1 X73.776 Y126.224 E198.32799 F3600.000
G1 X73.776 Y73.776 E198.45349
G1 X126.224 Y73.776 E198.57899
G1 X126.224 Y126.149 E198.70432
G1 X127.070 Y127.070 F7800.000
G1 X72.930 Y127.070 E198.83387 F3600.000
G1 X72.930 Y72.930 E198.96342
G1 X127.070 Y72.930 E199.09297
G1 X127.070 Y126.995 E199.22234
G1 X127.741 Y127.741 F7800.000
G1 X72.259 Y127.741 E199.30015 F1800.000
G1 X72.259 Y72.259 E199.37797
G1 X127.741 Y72.259 E199.45579
G1 X127.741 Y127.666 E199.53350
G1 X127.308 Y127.491 F7800.000
G1 X121.020 Y121.020 F7800.000
G1 X121.020 Y106.063 E199.94897 F4800.000
G1 X95.113 Y121.020 E200.77991
G1 X121.020 Y121.020 E201.49953
G1 X121.020 Y94.726 F7800.000
G1 X121.020 Y78.980 E201.93692 F4800.000
G1 X78.980 Y78.980 E203.10467
G1 X78.980 Y118.998 E204.21626
G1 X121.020 Y94.726 E205.56466
M106 S221.85
G1 Z0.550 F7800.000
G1 X126.224 Y126.224 F7800.000
G1 X73.776 Y126.224 E205.69017 F3600.000
G1 X73.776 Y73.776 E205.81567
G1 X126.224 Y73.776 E205.94117
G1 X126.224 Y126.149 E206.06649
G1 X127.070 Y127.070 F7800.000
G1 X72.930 Y127.070 E206.19604 F3600.000
G1 X72.930 Y72.930 E206.32559
G1 X127.070 Y72.930 E206.45514
G1 X127.070 Y126.995 E206.58451
G1 X127.741 Y127.741 F7800.000
G1 X72.259 Y127.741 E206.66233 F1800.000
G1 X72.259 Y72.259 E206.74015
